(Generated by PartKam Version 0.05)

G20 G90 G40

(Inside Cuts)
G0 Z0.15
T0 M6
G17
M3
G0 X7.1212 Y5.6699
G1 Z-0.12 F30
G1 X5.925 Y5.6699 F60
G2 X5.8303 Y5.7132 I0 J0.125
G3 X5.8284 Y5.7149 I-0.0063 J-0.0054
G3 X5.8259 Y5.7159 I-0.0043 J-0.0071
G3 X5.8233 Y5.7161 I-0.0019 J-0.0081
G3 X5.8208 Y5.7155 I0.0007 J-0.0083
G3 X5.8186 Y5.7141 I0.0032 J-0.0077
G3 X5.8169 Y5.7121 I0.0054 J-0.0063
G3 X5.8159 Y5.7097 I0.0071 J-0.0043
G3 X5.8157 Y5.7078 I0.0081 J-0.0019
G1 X5.8157 Y5.7071
G3 X5.8163 Y5.7046 I0.0083 J0.0007
G3 X5.8177 Y5.7023 I0.0077 J0.0032
G2 X5.8481 Y5.6207 I-0.0946 J-0.0817
G1 X5.8481 Y5.4912
G2 X5.8177 Y5.4095 I-0.125 J0
G3 X5.8163 Y5.4073 I0.0063 J-0.0054
G3 X5.8157 Y5.4048 I0.0077 J-0.0032
G1 X5.8157 Y5.4041
G3 X5.8159 Y5.4022 I0.0083 J0
G3 X5.8169 Y5.3997 I0.0081 J0.0019
G3 X5.8186 Y5.3978 I0.0071 J0.0043
G3 X5.8208 Y5.3964 I0.0054 J0.0063
G3 X5.8233 Y5.3958 I0.0032 J0.0077
G3 X5.8259 Y5.396 I0.0007 J0.0083
G3 X5.8284 Y5.3969 I-0.0019 J0.0081
G3 X5.8303 Y5.3986 I-0.0043 J0.0071
G2 X5.925 Y5.442 I0.0947 J-0.0816
G1 X7.1212 Y5.442
G2 X7.2159 Y5.3986 I0 J-0.125
G3 X7.2178 Y5.3969 I0.0063 J0.0054
G3 X7.2203 Y5.3959 I0.0043 J0.0071
G3 X7.2229 Y5.3957 I0.0019 J0.0081
G3 X7.2254 Y5.3964 I-0.0007 J0.0083
G3 X7.2276 Y5.3977 I-0.0032 J0.0077
G3 X7.2293 Y5.3997 I-0.0054 J0.0063
G3 X7.2303 Y5.4021 I-0.0071 J0.0043
G3 X7.2305 Y5.404 I-0.0081 J0.0019
G1 X7.2305 Y5.4047
G3 X7.2299 Y5.4073 I-0.0083 J-0.0007
G3 X7.2285 Y5.4095 I-0.0077 J-0.0032
G2 X7.1981 Y5.4912 I0.0946 J0.0817
G1 X7.1981 Y5.6207
G2 X7.2285 Y5.7024 I0.125 J0
G3 X7.2299 Y5.7046 I-0.0063 J0.0054
G3 X7.2305 Y5.7071 I-0.0077 J0.0032
G1 X7.2305 Y5.7078
G3 X7.2303 Y5.7097 I-0.0083 J0
G3 X7.2293 Y5.7121 I-0.0081 J-0.0019
G3 X7.2276 Y5.7141 I-0.0071 J-0.0043
G3 X7.2254 Y5.7155 I-0.0054 J-0.0063
G3 X7.2229 Y5.7161 I-0.0032 J-0.0077
G3 X7.2203 Y5.7159 I-0.0007 J-0.0083
G3 X7.2178 Y5.7149 I0.0019 J-0.0081
G3 X7.2159 Y5.7133 I0.0043 J-0.0071
G2 X7.1212 Y5.6699 I-0.0947 J0.0816
G1 Z-0.24 F30
G1 X5.925 Y5.6699 F60
G2 X5.8303 Y5.7132 I0 J0.125
G3 X5.8284 Y5.7149 I-0.0063 J-0.0054
G3 X5.8259 Y5.7159 I-0.0043 J-0.0071
G3 X5.8233 Y5.7161 I-0.0019 J-0.0081
G3 X5.8208 Y5.7155 I0.0007 J-0.0083
G3 X5.8186 Y5.7141 I0.0032 J-0.0077
G3 X5.8169 Y5.7121 I0.0054 J-0.0063
G3 X5.8159 Y5.7097 I0.0071 J-0.0043
G3 X5.8157 Y5.7078 I0.0081 J-0.0019
G1 X5.8157 Y5.7071
G3 X5.8163 Y5.7046 I0.0083 J0.0007
G3 X5.8177 Y5.7023 I0.0077 J0.0032
G2 X5.8481 Y5.6207 I-0.0946 J-0.0817
G1 X5.8481 Y5.4912
G2 X5.8177 Y5.4095 I-0.125 J0
G3 X5.8163 Y5.4073 I0.0063 J-0.0054
G3 X5.8157 Y5.4048 I0.0077 J-0.0032
G1 X5.8157 Y5.4041
G3 X5.8159 Y5.4022 I0.0083 J0
G3 X5.8169 Y5.3997 I0.0081 J0.0019
G3 X5.8186 Y5.3978 I0.0071 J0.0043
G3 X5.8208 Y5.3964 I0.0054 J0.0063
G3 X5.8233 Y5.3958 I0.0032 J0.0077
G3 X5.8259 Y5.396 I0.0007 J0.0083
G3 X5.8284 Y5.3969 I-0.0019 J0.0081
G3 X5.8303 Y5.3986 I-0.0043 J0.0071
G2 X5.925 Y5.442 I0.0947 J-0.0816
G1 X7.1212 Y5.442
G2 X7.2159 Y5.3986 I0 J-0.125
G3 X7.2178 Y5.3969 I0.0063 J0.0054
G3 X7.2203 Y5.3959 I0.0043 J0.0071
G3 X7.2229 Y5.3957 I0.0019 J0.0081
G3 X7.2254 Y5.3964 I-0.0007 J0.0083
G3 X7.2276 Y5.3977 I-0.0032 J0.0077
G3 X7.2293 Y5.3997 I-0.0054 J0.0063
G3 X7.2303 Y5.4021 I-0.0071 J0.0043
G3 X7.2305 Y5.404 I-0.0081 J0.0019
G1 X7.2305 Y5.4047
G3 X7.2299 Y5.4073 I-0.0083 J-0.0007
G3 X7.2285 Y5.4095 I-0.0077 J-0.0032
G2 X7.1981 Y5.4912 I0.0946 J0.0817
G1 X7.1981 Y5.6207
G2 X7.2285 Y5.7024 I0.125 J0
G3 X7.2299 Y5.7046 I-0.0063 J0.0054
G3 X7.2305 Y5.7071 I-0.0077 J0.0032
G1 X7.2305 Y5.7078
G3 X7.2303 Y5.7097 I-0.0083 J0
G3 X7.2293 Y5.7121 I-0.0081 J-0.0019
G3 X7.2276 Y5.7141 I-0.0071 J-0.0043
G3 X7.2254 Y5.7155 I-0.0054 J-0.0063
G3 X7.2229 Y5.7161 I-0.0032 J-0.0077
G3 X7.2203 Y5.7159 I-0.0007 J-0.0083
G3 X7.2178 Y5.7149 I0.0019 J-0.0081
G3 X7.2159 Y5.7133 I0.0043 J-0.0071
G2 X7.1212 Y5.6699 I-0.0947 J0.0816
G1 Z-0.36 F30
G1 X5.925 Y5.6699 F60
G2 X5.8303 Y5.7132 I0 J0.125
G3 X5.8284 Y5.7149 I-0.0063 J-0.0054
G3 X5.8259 Y5.7159 I-0.0043 J-0.0071
G3 X5.8233 Y5.7161 I-0.0019 J-0.0081
G3 X5.8208 Y5.7155 I0.0007 J-0.0083
G3 X5.8186 Y5.7141 I0.0032 J-0.0077
G3 X5.8169 Y5.7121 I0.0054 J-0.0063
G3 X5.8159 Y5.7097 I0.0071 J-0.0043
G3 X5.8157 Y5.7078 I0.0081 J-0.0019
G1 X5.8157 Y5.7071
G3 X5.8163 Y5.7046 I0.0083 J0.0007
G3 X5.8177 Y5.7023 I0.0077 J0.0032
G2 X5.8481 Y5.6207 I-0.0946 J-0.0817
G1 X5.8481 Y5.4912
G2 X5.8177 Y5.4095 I-0.125 J0
G3 X5.8163 Y5.4073 I0.0063 J-0.0054
G3 X5.8157 Y5.4048 I0.0077 J-0.0032
G1 X5.8157 Y5.4041
G3 X5.8159 Y5.4022 I0.0083 J0
G3 X5.8169 Y5.3997 I0.0081 J0.0019
G3 X5.8186 Y5.3978 I0.0071 J0.0043
G3 X5.8208 Y5.3964 I0.0054 J0.0063
G3 X5.8233 Y5.3958 I0.0032 J0.0077
G3 X5.8259 Y5.396 I0.0007 J0.0083
G3 X5.8284 Y5.3969 I-0.0019 J0.0081
G3 X5.8303 Y5.3986 I-0.0043 J0.0071
G2 X5.925 Y5.442 I0.0947 J-0.0816
G1 X7.1212 Y5.442
G2 X7.2159 Y5.3986 I0 J-0.125
G3 X7.2178 Y5.3969 I0.0063 J0.0054
G3 X7.2203 Y5.3959 I0.0043 J0.0071
G3 X7.2229 Y5.3957 I0.0019 J0.0081
G3 X7.2254 Y5.3964 I-0.0007 J0.0083
G3 X7.2276 Y5.3977 I-0.0032 J0.0077
G3 X7.2293 Y5.3997 I-0.0054 J0.0063
G3 X7.2303 Y5.4021 I-0.0071 J0.0043
G3 X7.2305 Y5.404 I-0.0081 J0.0019
G1 X7.2305 Y5.4047
G3 X7.2299 Y5.4073 I-0.0083 J-0.0007
G3 X7.2285 Y5.4095 I-0.0077 J-0.0032
G2 X7.1981 Y5.4912 I0.0946 J0.0817
G1 X7.1981 Y5.6207
G2 X7.2285 Y5.7024 I0.125 J0
G3 X7.2299 Y5.7046 I-0.0063 J0.0054
G3 X7.2305 Y5.7071 I-0.0077 J0.0032
G1 X7.2305 Y5.7078
G3 X7.2303 Y5.7097 I-0.0083 J0
G3 X7.2293 Y5.7121 I-0.0081 J-0.0019
G3 X7.2276 Y5.7141 I-0.0071 J-0.0043
G3 X7.2254 Y5.7155 I-0.0054 J-0.0063
G3 X7.2229 Y5.7161 I-0.0032 J-0.0077
G3 X7.2203 Y5.7159 I-0.0007 J-0.0083
G3 X7.2178 Y5.7149 I0.0019 J-0.0081
G3 X7.2159 Y5.7133 I0.0043 J-0.0071
G2 X7.1212 Y5.6699 I-0.0947 J0.0816
G1 Z-0.48 F30
G1 X5.925 Y5.6699 F60
G2 X5.8303 Y5.7132 I0 J0.125
G3 X5.8284 Y5.7149 I-0.0063 J-0.0054
G3 X5.8259 Y5.7159 I-0.0043 J-0.0071
G3 X5.8233 Y5.7161 I-0.0019 J-0.0081
G3 X5.8208 Y5.7155 I0.0007 J-0.0083
G3 X5.8186 Y5.7141 I0.0032 J-0.0077
G3 X5.8169 Y5.7121 I0.0054 J-0.0063
G3 X5.8159 Y5.7097 I0.0071 J-0.0043
G3 X5.8157 Y5.7078 I0.0081 J-0.0019
G1 X5.8157 Y5.7071
G3 X5.8163 Y5.7046 I0.0083 J0.0007
G3 X5.8177 Y5.7023 I0.0077 J0.0032
G2 X5.8481 Y5.6207 I-0.0946 J-0.0817
G1 X5.8481 Y5.4912
G2 X5.8177 Y5.4095 I-0.125 J0
G3 X5.8163 Y5.4073 I0.0063 J-0.0054
G3 X5.8157 Y5.4048 I0.0077 J-0.0032
G1 X5.8157 Y5.4041
G3 X5.8159 Y5.4022 I0.0083 J0
G3 X5.8169 Y5.3997 I0.0081 J0.0019
G3 X5.8186 Y5.3978 I0.0071 J0.0043
G3 X5.8208 Y5.3964 I0.0054 J0.0063
G3 X5.8233 Y5.3958 I0.0032 J0.0077
G3 X5.8259 Y5.396 I0.0007 J0.0083
G3 X5.8284 Y5.3969 I-0.0019 J0.0081
G3 X5.8303 Y5.3986 I-0.0043 J0.0071
G2 X5.925 Y5.442 I0.0947 J-0.0816
G1 X7.1212 Y5.442
G2 X7.2159 Y5.3986 I0 J-0.125
G3 X7.2178 Y5.3969 I0.0063 J0.0054
G3 X7.2203 Y5.3959 I0.0043 J0.0071
G3 X7.2229 Y5.3957 I0.0019 J0.0081
G3 X7.2254 Y5.3964 I-0.0007 J0.0083
G3 X7.2276 Y5.3977 I-0.0032 J0.0077
G3 X7.2293 Y5.3997 I-0.0054 J0.0063
G3 X7.2303 Y5.4021 I-0.0071 J0.0043
G3 X7.2305 Y5.404 I-0.0081 J0.0019
G1 X7.2305 Y5.4047
G3 X7.2299 Y5.4073 I-0.0083 J-0.0007
G3 X7.2285 Y5.4095 I-0.0077 J-0.0032
G2 X7.1981 Y5.4912 I0.0946 J0.0817
G1 X7.1981 Y5.6207
G2 X7.2285 Y5.7024 I0.125 J0
G3 X7.2299 Y5.7046 I-0.0063 J0.0054
G3 X7.2305 Y5.7071 I-0.0077 J0.0032
G1 X7.2305 Y5.7078
G3 X7.2303 Y5.7097 I-0.0083 J0
G3 X7.2293 Y5.7121 I-0.0081 J-0.0019
G3 X7.2276 Y5.7141 I-0.0071 J-0.0043
G3 X7.2254 Y5.7155 I-0.0054 J-0.0063
G3 X7.2229 Y5.7161 I-0.0032 J-0.0077
G3 X7.2203 Y5.7159 I-0.0007 J-0.0083
G3 X7.2178 Y5.7149 I0.0019 J-0.0081
G3 X7.2159 Y5.7133 I0.0043 J-0.0071
G2 X7.1212 Y5.6699 I-0.0947 J0.0816
G1 Z-0.55 F30
G1 X5.925 Y5.6699 F60
G2 X5.8303 Y5.7132 I0 J0.125
G3 X5.8284 Y5.7149 I-0.0063 J-0.0054
G3 X5.8259 Y5.7159 I-0.0043 J-0.0071
G3 X5.8233 Y5.7161 I-0.0019 J-0.0081
G3 X5.8208 Y5.7155 I0.0007 J-0.0083
G3 X5.8186 Y5.7141 I0.0032 J-0.0077
G3 X5.8169 Y5.7121 I0.0054 J-0.0063
G3 X5.8159 Y5.7097 I0.0071 J-0.0043
G3 X5.8157 Y5.7078 I0.0081 J-0.0019
G1 X5.8157 Y5.7071
G3 X5.8163 Y5.7046 I0.0083 J0.0007
G3 X5.8177 Y5.7023 I0.0077 J0.0032
G2 X5.8481 Y5.6207 I-0.0946 J-0.0817
G1 X5.8481 Y5.4912
G2 X5.8177 Y5.4095 I-0.125 J0
G3 X5.8163 Y5.4073 I0.0063 J-0.0054
G3 X5.8157 Y5.4048 I0.0077 J-0.0032
G1 X5.8157 Y5.4041
G3 X5.8159 Y5.4022 I0.0083 J0
G3 X5.8169 Y5.3997 I0.0081 J0.0019
G3 X5.8186 Y5.3978 I0.0071 J0.0043
G3 X5.8208 Y5.3964 I0.0054 J0.0063
G3 X5.8233 Y5.3958 I0.0032 J0.0077
G3 X5.8259 Y5.396 I0.0007 J0.0083
G3 X5.8284 Y5.3969 I-0.0019 J0.0081
G3 X5.8303 Y5.3986 I-0.0043 J0.0071
G2 X5.925 Y5.442 I0.0947 J-0.0816
G1 X7.1212 Y5.442
G2 X7.2159 Y5.3986 I0 J-0.125
G3 X7.2178 Y5.3969 I0.0063 J0.0054
G3 X7.2203 Y5.3959 I0.0043 J0.0071
G3 X7.2229 Y5.3957 I0.0019 J0.0081
G3 X7.2254 Y5.3964 I-0.0007 J0.0083
G3 X7.2276 Y5.3977 I-0.0032 J0.0077
G3 X7.2293 Y5.3997 I-0.0054 J0.0063
G3 X7.2303 Y5.4021 I-0.0071 J0.0043
G3 X7.2305 Y5.404 I-0.0081 J0.0019
G1 X7.2305 Y5.4047
G3 X7.2299 Y5.4073 I-0.0083 J-0.0007
G3 X7.2285 Y5.4095 I-0.0077 J-0.0032
G2 X7.1981 Y5.4912 I0.0946 J0.0817
G1 X7.1981 Y5.6207
G2 X7.2285 Y5.7024 I0.125 J0
G3 X7.2299 Y5.7046 I-0.0063 J0.0054
G3 X7.2305 Y5.7071 I-0.0077 J0.0032
G1 X7.2305 Y5.7078
G3 X7.2303 Y5.7097 I-0.0083 J0
G3 X7.2293 Y5.7121 I-0.0081 J-0.0019
G3 X7.2276 Y5.7141 I-0.0071 J-0.0043
G3 X7.2254 Y5.7155 I-0.0054 J-0.0063
G3 X7.2229 Y5.7161 I-0.0032 J-0.0077
G3 X7.2203 Y5.7159 I-0.0007 J-0.0083
G3 X7.2178 Y5.7149 I0.0019 J-0.0081
G3 X7.2159 Y5.7133 I0.0043 J-0.0071
G2 X7.1212 Y5.6699 I-0.0947 J0.0816
G0 Z0.15
G0 X7.1212 Y3.5365
G1 Z-0.12 F30
G1 X5.925 Y3.5365 F60
G2 X5.8304 Y3.5799 I0 J0.125
G3 X5.8278 Y3.5819 I-0.0063 J-0.0054
G3 X5.8247 Y3.5827 I-0.0037 J-0.0074
G3 X5.8215 Y3.5823 I-0.0006 J-0.0083
G3 X5.8186 Y3.5807 I0.0026 J-0.0079
G3 X5.8166 Y3.5782 I0.0054 J-0.0063
G3 X5.8158 Y3.575 I0.0074 J-0.0037
G1 X5.8157 Y3.5744
G3 X5.8162 Y3.5718 I0.0083 J0
G3 X5.8178 Y3.569 I0.0079 J0.0026
G2 X5.8481 Y3.4873 I-0.0947 J-0.0816
G1 X5.8481 Y3.3578
G2 X5.8177 Y3.2762 I-0.125 J0
G3 X5.8163 Y3.274 I0.0063 J-0.0054
G3 X5.8157 Y3.2714 I0.0077 J-0.0032
G1 X5.8157 Y3.2707
G3 X5.8159 Y3.2688 I0.0083 J0
G3 X5.8169 Y3.2664 I0.0081 J0.0019
G3 X5.8186 Y3.2644 I0.0071 J0.0043
G3 X5.8208 Y3.2631 I0.0054 J0.0063
G3 X5.8233 Y3.2624 I0.0032 J0.0077
G3 X5.8259 Y3.2626 I0.0007 J0.0083
G3 X5.8284 Y3.2636 I-0.0019 J0.0081
G3 X5.8303 Y3.2653 I-0.0043 J0.0071
G2 X5.925 Y3.3087 I0.0947 J-0.0816
G1 X7.1212 Y3.3087
G2 X7.2159 Y3.2653 I0 J-0.125
G3 X7.2178 Y3.2636 I0.0063 J0.0054
G3 X7.2203 Y3.2626 I0.0043 J0.0071
G3 X7.2229 Y3.2624 I0.0019 J0.0081
G3 X7.2254 Y3.263 I-0.0007 J0.0083
G3 X7.2276 Y3.2644 I-0.0032 J0.0077
G3 X7.2293 Y3.2664 I-0.0054 J0.0063
G3 X7.2303 Y3.2688 I-0.0071 J0.0043
G3 X7.2305 Y3.2707 I-0.0081 J0.0019
G1 X7.2305 Y3.2714
G3 X7.2299 Y3.2739 I-0.0083 J-0.0007
G3 X7.2285 Y3.2762 I-0.0077 J-0.0032
G2 X7.1981 Y3.3578 I0.0946 J0.0817
G1 X7.1981 Y3.4873
G2 X7.2285 Y3.569 I0.125 J0
G3 X7.2299 Y3.5712 I-0.0063 J0.0054
G3 X7.2305 Y3.5738 I-0.0077 J0.0032
G1 X7.2305 Y3.5745
G3 X7.2303 Y3.5764 I-0.0083 J0
G3 X7.2293 Y3.5788 I-0.0081 J-0.0019
G3 X7.2276 Y3.5808 I-0.0071 J-0.0043
G3 X7.2254 Y3.5822 I-0.0054 J-0.0063
G3 X7.2229 Y3.5828 I-0.0032 J-0.0077
G3 X7.2203 Y3.5826 I-0.0007 J-0.0083
G3 X7.2178 Y3.5816 I0.0019 J-0.0081
G3 X7.2159 Y3.5799 I0.0043 J-0.0071
G2 X7.1212 Y3.5365 I-0.0947 J0.0816
G1 Z-0.24 F30
G1 X5.925 Y3.5365 F60
G2 X5.8304 Y3.5799 I0 J0.125
G3 X5.8278 Y3.5819 I-0.0063 J-0.0054
G3 X5.8247 Y3.5827 I-0.0037 J-0.0074
G3 X5.8215 Y3.5823 I-0.0006 J-0.0083
G3 X5.8186 Y3.5807 I0.0026 J-0.0079
G3 X5.8166 Y3.5782 I0.0054 J-0.0063
G3 X5.8158 Y3.575 I0.0074 J-0.0037
G1 X5.8157 Y3.5744
G3 X5.8162 Y3.5718 I0.0083 J0
G3 X5.8178 Y3.569 I0.0079 J0.0026
G2 X5.8481 Y3.4873 I-0.0947 J-0.0816
G1 X5.8481 Y3.3578
G2 X5.8177 Y3.2762 I-0.125 J0
G3 X5.8163 Y3.274 I0.0063 J-0.0054
G3 X5.8157 Y3.2714 I0.0077 J-0.0032
G1 X5.8157 Y3.2707
G3 X5.8159 Y3.2688 I0.0083 J0
G3 X5.8169 Y3.2664 I0.0081 J0.0019
G3 X5.8186 Y3.2644 I0.0071 J0.0043
G3 X5.8208 Y3.2631 I0.0054 J0.0063
G3 X5.8233 Y3.2624 I0.0032 J0.0077
G3 X5.8259 Y3.2626 I0.0007 J0.0083
G3 X5.8284 Y3.2636 I-0.0019 J0.0081
G3 X5.8303 Y3.2653 I-0.0043 J0.0071
G2 X5.925 Y3.3087 I0.0947 J-0.0816
G1 X7.1212 Y3.3087
G2 X7.2159 Y3.2653 I0 J-0.125
G3 X7.2178 Y3.2636 I0.0063 J0.0054
G3 X7.2203 Y3.2626 I0.0043 J0.0071
G3 X7.2229 Y3.2624 I0.0019 J0.0081
G3 X7.2254 Y3.263 I-0.0007 J0.0083
G3 X7.2276 Y3.2644 I-0.0032 J0.0077
G3 X7.2293 Y3.2664 I-0.0054 J0.0063
G3 X7.2303 Y3.2688 I-0.0071 J0.0043
G3 X7.2305 Y3.2707 I-0.0081 J0.0019
G1 X7.2305 Y3.2714
G3 X7.2299 Y3.2739 I-0.0083 J-0.0007
G3 X7.2285 Y3.2762 I-0.0077 J-0.0032
G2 X7.1981 Y3.3578 I0.0946 J0.0817
G1 X7.1981 Y3.4873
G2 X7.2285 Y3.569 I0.125 J0
G3 X7.2299 Y3.5712 I-0.0063 J0.0054
G3 X7.2305 Y3.5738 I-0.0077 J0.0032
G1 X7.2305 Y3.5745
G3 X7.2303 Y3.5764 I-0.0083 J0
G3 X7.2293 Y3.5788 I-0.0081 J-0.0019
G3 X7.2276 Y3.5808 I-0.0071 J-0.0043
G3 X7.2254 Y3.5822 I-0.0054 J-0.0063
G3 X7.2229 Y3.5828 I-0.0032 J-0.0077
G3 X7.2203 Y3.5826 I-0.0007 J-0.0083
G3 X7.2178 Y3.5816 I0.0019 J-0.0081
G3 X7.2159 Y3.5799 I0.0043 J-0.0071
G2 X7.1212 Y3.5365 I-0.0947 J0.0816
G1 Z-0.36 F30
G1 X5.925 Y3.5365 F60
G2 X5.8304 Y3.5799 I0 J0.125
G3 X5.8278 Y3.5819 I-0.0063 J-0.0054
G3 X5.8247 Y3.5827 I-0.0037 J-0.0074
G3 X5.8215 Y3.5823 I-0.0006 J-0.0083
G3 X5.8186 Y3.5807 I0.0026 J-0.0079
G3 X5.8166 Y3.5782 I0.0054 J-0.0063
G3 X5.8158 Y3.575 I0.0074 J-0.0037
G1 X5.8157 Y3.5744
G3 X5.8162 Y3.5718 I0.0083 J0
G3 X5.8178 Y3.569 I0.0079 J0.0026
G2 X5.8481 Y3.4873 I-0.0947 J-0.0816
G1 X5.8481 Y3.3578
G2 X5.8177 Y3.2762 I-0.125 J0
G3 X5.8163 Y3.274 I0.0063 J-0.0054
G3 X5.8157 Y3.2714 I0.0077 J-0.0032
G1 X5.8157 Y3.2707
G3 X5.8159 Y3.2688 I0.0083 J0
G3 X5.8169 Y3.2664 I0.0081 J0.0019
G3 X5.8186 Y3.2644 I0.0071 J0.0043
G3 X5.8208 Y3.2631 I0.0054 J0.0063
G3 X5.8233 Y3.2624 I0.0032 J0.0077
G3 X5.8259 Y3.2626 I0.0007 J0.0083
G3 X5.8284 Y3.2636 I-0.0019 J0.0081
G3 X5.8303 Y3.2653 I-0.0043 J0.0071
G2 X5.925 Y3.3087 I0.0947 J-0.0816
G1 X7.1212 Y3.3087
G2 X7.2159 Y3.2653 I0 J-0.125
G3 X7.2178 Y3.2636 I0.0063 J0.0054
G3 X7.2203 Y3.2626 I0.0043 J0.0071
G3 X7.2229 Y3.2624 I0.0019 J0.0081
G3 X7.2254 Y3.263 I-0.0007 J0.0083
G3 X7.2276 Y3.2644 I-0.0032 J0.0077
G3 X7.2293 Y3.2664 I-0.0054 J0.0063
G3 X7.2303 Y3.2688 I-0.0071 J0.0043
G3 X7.2305 Y3.2707 I-0.0081 J0.0019
G1 X7.2305 Y3.2714
G3 X7.2299 Y3.2739 I-0.0083 J-0.0007
G3 X7.2285 Y3.2762 I-0.0077 J-0.0032
G2 X7.1981 Y3.3578 I0.0946 J0.0817
G1 X7.1981 Y3.4873
G2 X7.2285 Y3.569 I0.125 J0
G3 X7.2299 Y3.5712 I-0.0063 J0.0054
G3 X7.2305 Y3.5738 I-0.0077 J0.0032
G1 X7.2305 Y3.5745
G3 X7.2303 Y3.5764 I-0.0083 J0
G3 X7.2293 Y3.5788 I-0.0081 J-0.0019
G3 X7.2276 Y3.5808 I-0.0071 J-0.0043
G3 X7.2254 Y3.5822 I-0.0054 J-0.0063
G3 X7.2229 Y3.5828 I-0.0032 J-0.0077
G3 X7.2203 Y3.5826 I-0.0007 J-0.0083
G3 X7.2178 Y3.5816 I0.0019 J-0.0081
G3 X7.2159 Y3.5799 I0.0043 J-0.0071
G2 X7.1212 Y3.5365 I-0.0947 J0.0816
G1 Z-0.48 F30
G1 X5.925 Y3.5365 F60
G2 X5.8304 Y3.5799 I0 J0.125
G3 X5.8278 Y3.5819 I-0.0063 J-0.0054
G3 X5.8247 Y3.5827 I-0.0037 J-0.0074
G3 X5.8215 Y3.5823 I-0.0006 J-0.0083
G3 X5.8186 Y3.5807 I0.0026 J-0.0079
G3 X5.8166 Y3.5782 I0.0054 J-0.0063
G3 X5.8158 Y3.575 I0.0074 J-0.0037
G1 X5.8157 Y3.5744
G3 X5.8162 Y3.5718 I0.0083 J0
G3 X5.8178 Y3.569 I0.0079 J0.0026
G2 X5.8481 Y3.4873 I-0.0947 J-0.0816
G1 X5.8481 Y3.3578
G2 X5.8177 Y3.2762 I-0.125 J0
G3 X5.8163 Y3.274 I0.0063 J-0.0054
G3 X5.8157 Y3.2714 I0.0077 J-0.0032
G1 X5.8157 Y3.2707
G3 X5.8159 Y3.2688 I0.0083 J0
G3 X5.8169 Y3.2664 I0.0081 J0.0019
G3 X5.8186 Y3.2644 I0.0071 J0.0043
G3 X5.8208 Y3.2631 I0.0054 J0.0063
G3 X5.8233 Y3.2624 I0.0032 J0.0077
G3 X5.8259 Y3.2626 I0.0007 J0.0083
G3 X5.8284 Y3.2636 I-0.0019 J0.0081
G3 X5.8303 Y3.2653 I-0.0043 J0.0071
G2 X5.925 Y3.3087 I0.0947 J-0.0816
G1 X7.1212 Y3.3087
G2 X7.2159 Y3.2653 I0 J-0.125
G3 X7.2178 Y3.2636 I0.0063 J0.0054
G3 X7.2203 Y3.2626 I0.0043 J0.0071
G3 X7.2229 Y3.2624 I0.0019 J0.0081
G3 X7.2254 Y3.263 I-0.0007 J0.0083
G3 X7.2276 Y3.2644 I-0.0032 J0.0077
G3 X7.2293 Y3.2664 I-0.0054 J0.0063
G3 X7.2303 Y3.2688 I-0.0071 J0.0043
G3 X7.2305 Y3.2707 I-0.0081 J0.0019
G1 X7.2305 Y3.2714
G3 X7.2299 Y3.2739 I-0.0083 J-0.0007
G3 X7.2285 Y3.2762 I-0.0077 J-0.0032
G2 X7.1981 Y3.3578 I0.0946 J0.0817
G1 X7.1981 Y3.4873
G2 X7.2285 Y3.569 I0.125 J0
G3 X7.2299 Y3.5712 I-0.0063 J0.0054
G3 X7.2305 Y3.5738 I-0.0077 J0.0032
G1 X7.2305 Y3.5745
G3 X7.2303 Y3.5764 I-0.0083 J0
G3 X7.2293 Y3.5788 I-0.0081 J-0.0019
G3 X7.2276 Y3.5808 I-0.0071 J-0.0043
G3 X7.2254 Y3.5822 I-0.0054 J-0.0063
G3 X7.2229 Y3.5828 I-0.0032 J-0.0077
G3 X7.2203 Y3.5826 I-0.0007 J-0.0083
G3 X7.2178 Y3.5816 I0.0019 J-0.0081
G3 X7.2159 Y3.5799 I0.0043 J-0.0071
G2 X7.1212 Y3.5365 I-0.0947 J0.0816
G1 Z-0.55 F30
G1 X5.925 Y3.5365 F60
G2 X5.8304 Y3.5799 I0 J0.125
G3 X5.8278 Y3.5819 I-0.0063 J-0.0054
G3 X5.8247 Y3.5827 I-0.0037 J-0.0074
G3 X5.8215 Y3.5823 I-0.0006 J-0.0083
G3 X5.8186 Y3.5807 I0.0026 J-0.0079
G3 X5.8166 Y3.5782 I0.0054 J-0.0063
G3 X5.8158 Y3.575 I0.0074 J-0.0037
G1 X5.8157 Y3.5744
G3 X5.8162 Y3.5718 I0.0083 J0
G3 X5.8178 Y3.569 I0.0079 J0.0026
G2 X5.8481 Y3.4873 I-0.0947 J-0.0816
G1 X5.8481 Y3.3578
G2 X5.8177 Y3.2762 I-0.125 J0
G3 X5.8163 Y3.274 I0.0063 J-0.0054
G3 X5.8157 Y3.2714 I0.0077 J-0.0032
G1 X5.8157 Y3.2707
G3 X5.8159 Y3.2688 I0.0083 J0
G3 X5.8169 Y3.2664 I0.0081 J0.0019
G3 X5.8186 Y3.2644 I0.0071 J0.0043
G3 X5.8208 Y3.2631 I0.0054 J0.0063
G3 X5.8233 Y3.2624 I0.0032 J0.0077
G3 X5.8259 Y3.2626 I0.0007 J0.0083
G3 X5.8284 Y3.2636 I-0.0019 J0.0081
G3 X5.8303 Y3.2653 I-0.0043 J0.0071
G2 X5.925 Y3.3087 I0.0947 J-0.0816
G1 X7.1212 Y3.3087
G2 X7.2159 Y3.2653 I0 J-0.125
G3 X7.2178 Y3.2636 I0.0063 J0.0054
G3 X7.2203 Y3.2626 I0.0043 J0.0071
G3 X7.2229 Y3.2624 I0.0019 J0.0081
G3 X7.2254 Y3.263 I-0.0007 J0.0083
G3 X7.2276 Y3.2644 I-0.0032 J0.0077
G3 X7.2293 Y3.2664 I-0.0054 J0.0063
G3 X7.2303 Y3.2688 I-0.0071 J0.0043
G3 X7.2305 Y3.2707 I-0.0081 J0.0019
G1 X7.2305 Y3.2714
G3 X7.2299 Y3.2739 I-0.0083 J-0.0007
G3 X7.2285 Y3.2762 I-0.0077 J-0.0032
G2 X7.1981 Y3.3578 I0.0946 J0.0817
G1 X7.1981 Y3.4873
G2 X7.2285 Y3.569 I0.125 J0
G3 X7.2299 Y3.5712 I-0.0063 J0.0054
G3 X7.2305 Y3.5738 I-0.0077 J0.0032
G1 X7.2305 Y3.5745
G3 X7.2303 Y3.5764 I-0.0083 J0
G3 X7.2293 Y3.5788 I-0.0081 J-0.0019
G3 X7.2276 Y3.5808 I-0.0071 J-0.0043
G3 X7.2254 Y3.5822 I-0.0054 J-0.0063
G3 X7.2229 Y3.5828 I-0.0032 J-0.0077
G3 X7.2203 Y3.5826 I-0.0007 J-0.0083
G3 X7.2178 Y3.5816 I0.0019 J-0.0081
G3 X7.2159 Y3.5799 I0.0043 J-0.0071
G2 X7.1212 Y3.5365 I-0.0947 J0.0816
G0 Z0.15
G0 X10.6616 Y5.4221
G1 Z-0.12 F30
G1 X11.365 Y5.4221 F60
G2 X11.4499 Y5.3888 I0 J-0.125
G3 X11.4527 Y5.3871 I0.0057 J0.0061
G3 X11.4559 Y5.3866 I0.0029 J0.0078
G3 X11.4591 Y5.3873 I-0.0003 J0.0083
G3 X11.4617 Y5.3892 I-0.0035 J0.0076
G3 X11.4634 Y5.392 I-0.0061 J0.0057
G3 X11.4639 Y5.3949 I-0.0078 J0.0029
G1 X11.4639 Y5.395
G3 X11.4632 Y5.3983 I-0.0083 J-0.0001
G3 X11.4613 Y5.401 I-0.0076 J-0.0035
G2 X11.4216 Y5.4923 I0.0853 J0.0914
G1 X11.4216 Y5.5797
G2 X11.4613 Y5.6711 I0.125 J0
G3 X11.4632 Y5.6737 I-0.0057 J0.0061
G3 X11.4639 Y5.677 I-0.0076 J0.0035
G1 X11.4639 Y5.6772
G3 X11.4634 Y5.6801 I-0.0083 J0
G3 X11.4617 Y5.6828 I-0.0078 J-0.0029
G3 X11.4591 Y5.6847 I-0.0061 J-0.0057
G3 X11.4559 Y5.6855 I-0.0035 J-0.0076
G3 X11.4527 Y5.685 I-0.0003 J-0.0083
G3 X11.4499 Y5.6833 I0.0029 J-0.0078
G2 X11.365 Y5.65 I-0.085 J0.0917
G1 X10.6616 Y5.65
G2 X10.5764 Y5.6834 I0 J0.125
G3 X10.5737 Y5.6851 I-0.0057 J-0.0061
G3 X10.5705 Y5.6857 I-0.0029 J-0.0078
G3 X10.5673 Y5.6849 I0.0003 J-0.0083
G3 X10.5647 Y5.683 I0.0035 J-0.0076
G3 X10.5629 Y5.6802 I0.0061 J-0.0057
G3 X10.5624 Y5.6773 I0.0078 J-0.0029
G1 X10.5624 Y5.6772
G3 X10.5632 Y5.6739 I0.0083 J0.0001
G3 X10.5651 Y5.6712 I0.0076 J0.0035
G2 X10.6049 Y5.5797 I-0.0851 J-0.0915
G1 X10.6049 Y5.4923
G2 X10.5651 Y5.4008 I-0.125 J0
G3 X10.5632 Y5.3982 I0.0057 J-0.0061
G3 X10.5624 Y5.3949 I0.0076 J-0.0035
G1 X10.5624 Y5.3947
G3 X10.5629 Y5.3918 I0.0083 J0
G3 X10.5647 Y5.389 I0.0078 J0.0029
G3 X10.5673 Y5.3871 I0.0061 J0.0057
G3 X10.5705 Y5.3864 I0.0035 J0.0076
G3 X10.5737 Y5.3869 I0.0003 J0.0083
G3 X10.5764 Y5.3886 I-0.0029 J0.0078
G2 X10.6616 Y5.4221 I0.0851 J-0.0915
G1 Z-0.24 F30
G1 X11.365 Y5.4221 F60
G2 X11.4499 Y5.3888 I0 J-0.125
G3 X11.4527 Y5.3871 I0.0057 J0.0061
G3 X11.4559 Y5.3866 I0.0029 J0.0078
G3 X11.4591 Y5.3873 I-0.0003 J0.0083
G3 X11.4617 Y5.3892 I-0.0035 J0.0076
G3 X11.4634 Y5.392 I-0.0061 J0.0057
G3 X11.4639 Y5.3949 I-0.0078 J0.0029
G1 X11.4639 Y5.395
G3 X11.4632 Y5.3983 I-0.0083 J-0.0001
G3 X11.4613 Y5.401 I-0.0076 J-0.0035
G2 X11.4216 Y5.4923 I0.0853 J0.0914
G1 X11.4216 Y5.5797
G2 X11.4613 Y5.6711 I0.125 J0
G3 X11.4632 Y5.6737 I-0.0057 J0.0061
G3 X11.4639 Y5.677 I-0.0076 J0.0035
G1 X11.4639 Y5.6772
G3 X11.4634 Y5.6801 I-0.0083 J0
G3 X11.4617 Y5.6828 I-0.0078 J-0.0029
G3 X11.4591 Y5.6847 I-0.0061 J-0.0057
G3 X11.4559 Y5.6855 I-0.0035 J-0.0076
G3 X11.4527 Y5.685 I-0.0003 J-0.0083
G3 X11.4499 Y5.6833 I0.0029 J-0.0078
G2 X11.365 Y5.65 I-0.085 J0.0917
G1 X10.6616 Y5.65
G2 X10.5764 Y5.6834 I0 J0.125
G3 X10.5737 Y5.6851 I-0.0057 J-0.0061
G3 X10.5705 Y5.6857 I-0.0029 J-0.0078
G3 X10.5673 Y5.6849 I0.0003 J-0.0083
G3 X10.5647 Y5.683 I0.0035 J-0.0076
G3 X10.5629 Y5.6802 I0.0061 J-0.0057
G3 X10.5624 Y5.6773 I0.0078 J-0.0029
G1 X10.5624 Y5.6772
G3 X10.5632 Y5.6739 I0.0083 J0.0001
G3 X10.5651 Y5.6712 I0.0076 J0.0035
G2 X10.6049 Y5.5797 I-0.0851 J-0.0915
G1 X10.6049 Y5.4923
G2 X10.5651 Y5.4008 I-0.125 J0
G3 X10.5632 Y5.3982 I0.0057 J-0.0061
G3 X10.5624 Y5.3949 I0.0076 J-0.0035
G1 X10.5624 Y5.3947
G3 X10.5629 Y5.3918 I0.0083 J0
G3 X10.5647 Y5.389 I0.0078 J0.0029
G3 X10.5673 Y5.3871 I0.0061 J0.0057
G3 X10.5705 Y5.3864 I0.0035 J0.0076
G3 X10.5737 Y5.3869 I0.0003 J0.0083
G3 X10.5764 Y5.3886 I-0.0029 J0.0078
G2 X10.6616 Y5.4221 I0.0851 J-0.0915
G1 Z-0.36 F30
G1 X11.365 Y5.4221 F60
G2 X11.4499 Y5.3888 I0 J-0.125
G3 X11.4527 Y5.3871 I0.0057 J0.0061
G3 X11.4559 Y5.3866 I0.0029 J0.0078
G3 X11.4591 Y5.3873 I-0.0003 J0.0083
G3 X11.4617 Y5.3892 I-0.0035 J0.0076
G3 X11.4634 Y5.392 I-0.0061 J0.0057
G3 X11.4639 Y5.3949 I-0.0078 J0.0029
G1 X11.4639 Y5.395
G3 X11.4632 Y5.3983 I-0.0083 J-0.0001
G3 X11.4613 Y5.401 I-0.0076 J-0.0035
G2 X11.4216 Y5.4923 I0.0853 J0.0914
G1 X11.4216 Y5.5797
G2 X11.4613 Y5.6711 I0.125 J0
G3 X11.4632 Y5.6737 I-0.0057 J0.0061
G3 X11.4639 Y5.677 I-0.0076 J0.0035
G1 X11.4639 Y5.6772
G3 X11.4634 Y5.6801 I-0.0083 J0
G3 X11.4617 Y5.6828 I-0.0078 J-0.0029
G3 X11.4591 Y5.6847 I-0.0061 J-0.0057
G3 X11.4559 Y5.6855 I-0.0035 J-0.0076
G3 X11.4527 Y5.685 I-0.0003 J-0.0083
G3 X11.4499 Y5.6833 I0.0029 J-0.0078
G2 X11.365 Y5.65 I-0.085 J0.0917
G1 X10.6616 Y5.65
G2 X10.5764 Y5.6834 I0 J0.125
G3 X10.5737 Y5.6851 I-0.0057 J-0.0061
G3 X10.5705 Y5.6857 I-0.0029 J-0.0078
G3 X10.5673 Y5.6849 I0.0003 J-0.0083
G3 X10.5647 Y5.683 I0.0035 J-0.0076
G3 X10.5629 Y5.6802 I0.0061 J-0.0057
G3 X10.5624 Y5.6773 I0.0078 J-0.0029
G1 X10.5624 Y5.6772
G3 X10.5632 Y5.6739 I0.0083 J0.0001
G3 X10.5651 Y5.6712 I0.0076 J0.0035
G2 X10.6049 Y5.5797 I-0.0851 J-0.0915
G1 X10.6049 Y5.4923
G2 X10.5651 Y5.4008 I-0.125 J0
G3 X10.5632 Y5.3982 I0.0057 J-0.0061
G3 X10.5624 Y5.3949 I0.0076 J-0.0035
G1 X10.5624 Y5.3947
G3 X10.5629 Y5.3918 I0.0083 J0
G3 X10.5647 Y5.389 I0.0078 J0.0029
G3 X10.5673 Y5.3871 I0.0061 J0.0057
G3 X10.5705 Y5.3864 I0.0035 J0.0076
G3 X10.5737 Y5.3869 I0.0003 J0.0083
G3 X10.5764 Y5.3886 I-0.0029 J0.0078
G2 X10.6616 Y5.4221 I0.0851 J-0.0915
G1 Z-0.48 F30
G1 X11.365 Y5.4221 F60
G2 X11.4499 Y5.3888 I0 J-0.125
G3 X11.4527 Y5.3871 I0.0057 J0.0061
G3 X11.4559 Y5.3866 I0.0029 J0.0078
G3 X11.4591 Y5.3873 I-0.0003 J0.0083
G3 X11.4617 Y5.3892 I-0.0035 J0.0076
G3 X11.4634 Y5.392 I-0.0061 J0.0057
G3 X11.4639 Y5.3949 I-0.0078 J0.0029
G1 X11.4639 Y5.395
G3 X11.4632 Y5.3983 I-0.0083 J-0.0001
G3 X11.4613 Y5.401 I-0.0076 J-0.0035
G2 X11.4216 Y5.4923 I0.0853 J0.0914
G1 X11.4216 Y5.5797
G2 X11.4613 Y5.6711 I0.125 J0
G3 X11.4632 Y5.6737 I-0.0057 J0.0061
G3 X11.4639 Y5.677 I-0.0076 J0.0035
G1 X11.4639 Y5.6772
G3 X11.4634 Y5.6801 I-0.0083 J0
G3 X11.4617 Y5.6828 I-0.0078 J-0.0029
G3 X11.4591 Y5.6847 I-0.0061 J-0.0057
G3 X11.4559 Y5.6855 I-0.0035 J-0.0076
G3 X11.4527 Y5.685 I-0.0003 J-0.0083
G3 X11.4499 Y5.6833 I0.0029 J-0.0078
G2 X11.365 Y5.65 I-0.085 J0.0917
G1 X10.6616 Y5.65
G2 X10.5764 Y5.6834 I0 J0.125
G3 X10.5737 Y5.6851 I-0.0057 J-0.0061
G3 X10.5705 Y5.6857 I-0.0029 J-0.0078
G3 X10.5673 Y5.6849 I0.0003 J-0.0083
G3 X10.5647 Y5.683 I0.0035 J-0.0076
G3 X10.5629 Y5.6802 I0.0061 J-0.0057
G3 X10.5624 Y5.6773 I0.0078 J-0.0029
G1 X10.5624 Y5.6772
G3 X10.5632 Y5.6739 I0.0083 J0.0001
G3 X10.5651 Y5.6712 I0.0076 J0.0035
G2 X10.6049 Y5.5797 I-0.0851 J-0.0915
G1 X10.6049 Y5.4923
G2 X10.5651 Y5.4008 I-0.125 J0
G3 X10.5632 Y5.3982 I0.0057 J-0.0061
G3 X10.5624 Y5.3949 I0.0076 J-0.0035
G1 X10.5624 Y5.3947
G3 X10.5629 Y5.3918 I0.0083 J0
G3 X10.5647 Y5.389 I0.0078 J0.0029
G3 X10.5673 Y5.3871 I0.0061 J0.0057
G3 X10.5705 Y5.3864 I0.0035 J0.0076
G3 X10.5737 Y5.3869 I0.0003 J0.0083
G3 X10.5764 Y5.3886 I-0.0029 J0.0078
G2 X10.6616 Y5.4221 I0.0851 J-0.0915
G1 Z-0.55 F30
G1 X11.365 Y5.4221 F60
G2 X11.4499 Y5.3888 I0 J-0.125
G3 X11.4527 Y5.3871 I0.0057 J0.0061
G3 X11.4559 Y5.3866 I0.0029 J0.0078
G3 X11.4591 Y5.3873 I-0.0003 J0.0083
G3 X11.4617 Y5.3892 I-0.0035 J0.0076
G3 X11.4634 Y5.392 I-0.0061 J0.0057
G3 X11.4639 Y5.3949 I-0.0078 J0.0029
G1 X11.4639 Y5.395
G3 X11.4632 Y5.3983 I-0.0083 J-0.0001
G3 X11.4613 Y5.401 I-0.0076 J-0.0035
G2 X11.4216 Y5.4923 I0.0853 J0.0914
G1 X11.4216 Y5.5797
G2 X11.4613 Y5.6711 I0.125 J0
G3 X11.4632 Y5.6737 I-0.0057 J0.0061
G3 X11.4639 Y5.677 I-0.0076 J0.0035
G1 X11.4639 Y5.6772
G3 X11.4634 Y5.6801 I-0.0083 J0
G3 X11.4617 Y5.6828 I-0.0078 J-0.0029
G3 X11.4591 Y5.6847 I-0.0061 J-0.0057
G3 X11.4559 Y5.6855 I-0.0035 J-0.0076
G3 X11.4527 Y5.685 I-0.0003 J-0.0083
G3 X11.4499 Y5.6833 I0.0029 J-0.0078
G2 X11.365 Y5.65 I-0.085 J0.0917
G1 X10.6616 Y5.65
G2 X10.5764 Y5.6834 I0 J0.125
G3 X10.5737 Y5.6851 I-0.0057 J-0.0061
G3 X10.5705 Y5.6857 I-0.0029 J-0.0078
G3 X10.5673 Y5.6849 I0.0003 J-0.0083
G3 X10.5647 Y5.683 I0.0035 J-0.0076
G3 X10.5629 Y5.6802 I0.0061 J-0.0057
G3 X10.5624 Y5.6773 I0.0078 J-0.0029
G1 X10.5624 Y5.6772
G3 X10.5632 Y5.6739 I0.0083 J0.0001
G3 X10.5651 Y5.6712 I0.0076 J0.0035
G2 X10.6049 Y5.5797 I-0.0851 J-0.0915
G1 X10.6049 Y5.4923
G2 X10.5651 Y5.4008 I-0.125 J0
G3 X10.5632 Y5.3982 I0.0057 J-0.0061
G3 X10.5624 Y5.3949 I0.0076 J-0.0035
G1 X10.5624 Y5.3947
G3 X10.5629 Y5.3918 I0.0083 J0
G3 X10.5647 Y5.389 I0.0078 J0.0029
G3 X10.5673 Y5.3871 I0.0061 J0.0057
G3 X10.5705 Y5.3864 I0.0035 J0.0076
G3 X10.5737 Y5.3869 I0.0003 J0.0083
G3 X10.5764 Y5.3886 I-0.0029 J0.0078
G2 X10.6616 Y5.4221 I0.0851 J-0.0915
G0 Z0.15
G0 X10.6616 Y3.2888
G1 Z-0.12 F30
G1 X11.365 Y3.2888 F60
G2 X11.4499 Y3.2554 I0 J-0.125
G3 X11.4527 Y3.2537 I0.0057 J0.0061
G3 X11.4559 Y3.2532 I0.0029 J0.0078
G3 X11.4591 Y3.254 I-0.0003 J0.0083
G3 X11.4617 Y3.2559 I-0.0035 J0.0076
G3 X11.4634 Y3.2586 I-0.0061 J0.0057
G3 X11.4639 Y3.2616 I-0.0078 J0.0029
G1 X11.4639 Y3.2617
G3 X11.4632 Y3.265 I-0.0083 J-0.0001
G3 X11.4613 Y3.2676 I-0.0076 J-0.0035
G2 X11.4216 Y3.359 I0.0853 J0.0914
G1 X11.4216 Y3.4464
G2 X11.4613 Y3.5377 I0.125 J0
G3 X11.4632 Y3.5404 I-0.0057 J0.0061
G3 X11.4639 Y3.5437 I-0.0076 J0.0035
G1 X11.4639 Y3.5438
G3 X11.4634 Y3.5467 I-0.0083 J0
G3 X11.4617 Y3.5495 I-0.0078 J-0.0029
G3 X11.4591 Y3.5514 I-0.0061 J-0.0057
G3 X11.4559 Y3.5521 I-0.0035 J-0.0076
G3 X11.4527 Y3.5516 I-0.0003 J-0.0083
G3 X11.4499 Y3.5499 I0.0029 J-0.0078
G2 X11.365 Y3.5166 I-0.085 J0.0917
G1 X10.6616 Y3.5166
G2 X10.5764 Y3.5501 I0 J0.125
G3 X10.5737 Y3.5518 I-0.0057 J-0.0061
G3 X10.5705 Y3.5523 I-0.0029 J-0.0078
G3 X10.5673 Y3.5516 I0.0003 J-0.0083
G3 X10.5647 Y3.5497 I0.0035 J-0.0076
G3 X10.5629 Y3.5469 I0.0061 J-0.0057
G3 X10.5624 Y3.544 I0.0078 J-0.0029
G1 X10.5624 Y3.5438
G3 X10.5632 Y3.5405 I0.0083 J0.0001
G3 X10.5651 Y3.5379 I0.0076 J0.0035
G2 X10.6049 Y3.4464 I-0.0851 J-0.0915
G1 X10.6049 Y3.359
G2 X10.5651 Y3.2675 I-0.125 J0
G3 X10.5632 Y3.2648 I0.0057 J-0.0061
G3 X10.5624 Y3.2615 I0.0076 J-0.0035
G1 X10.5624 Y3.2614
G3 X10.5629 Y3.2585 I0.0083 J0
G3 X10.5647 Y3.2557 I0.0078 J0.0029
G3 X10.5673 Y3.2538 I0.0061 J0.0057
G3 X10.5705 Y3.2531 I0.0035 J0.0076
G3 X10.5737 Y3.2536 I0.0003 J0.0083
G3 X10.5764 Y3.2553 I-0.0029 J0.0078
G2 X10.6616 Y3.2888 I0.0851 J-0.0915
G1 Z-0.24 F30
G1 X11.365 Y3.2888 F60
G2 X11.4499 Y3.2554 I0 J-0.125
G3 X11.4527 Y3.2537 I0.0057 J0.0061
G3 X11.4559 Y3.2532 I0.0029 J0.0078
G3 X11.4591 Y3.254 I-0.0003 J0.0083
G3 X11.4617 Y3.2559 I-0.0035 J0.0076
G3 X11.4634 Y3.2586 I-0.0061 J0.0057
G3 X11.4639 Y3.2616 I-0.0078 J0.0029
G1 X11.4639 Y3.2617
G3 X11.4632 Y3.265 I-0.0083 J-0.0001
G3 X11.4613 Y3.2676 I-0.0076 J-0.0035
G2 X11.4216 Y3.359 I0.0853 J0.0914
G1 X11.4216 Y3.4464
G2 X11.4613 Y3.5377 I0.125 J0
G3 X11.4632 Y3.5404 I-0.0057 J0.0061
G3 X11.4639 Y3.5437 I-0.0076 J0.0035
G1 X11.4639 Y3.5438
G3 X11.4634 Y3.5467 I-0.0083 J0
G3 X11.4617 Y3.5495 I-0.0078 J-0.0029
G3 X11.4591 Y3.5514 I-0.0061 J-0.0057
G3 X11.4559 Y3.5521 I-0.0035 J-0.0076
G3 X11.4527 Y3.5516 I-0.0003 J-0.0083
G3 X11.4499 Y3.5499 I0.0029 J-0.0078
G2 X11.365 Y3.5166 I-0.085 J0.0917
G1 X10.6616 Y3.5166
G2 X10.5764 Y3.5501 I0 J0.125
G3 X10.5737 Y3.5518 I-0.0057 J-0.0061
G3 X10.5705 Y3.5523 I-0.0029 J-0.0078
G3 X10.5673 Y3.5516 I0.0003 J-0.0083
G3 X10.5647 Y3.5497 I0.0035 J-0.0076
G3 X10.5629 Y3.5469 I0.0061 J-0.0057
G3 X10.5624 Y3.544 I0.0078 J-0.0029
G1 X10.5624 Y3.5438
G3 X10.5632 Y3.5405 I0.0083 J0.0001
G3 X10.5651 Y3.5379 I0.0076 J0.0035
G2 X10.6049 Y3.4464 I-0.0851 J-0.0915
G1 X10.6049 Y3.359
G2 X10.5651 Y3.2675 I-0.125 J0
G3 X10.5632 Y3.2648 I0.0057 J-0.0061
G3 X10.5624 Y3.2615 I0.0076 J-0.0035
G1 X10.5624 Y3.2614
G3 X10.5629 Y3.2585 I0.0083 J0
G3 X10.5647 Y3.2557 I0.0078 J0.0029
G3 X10.5673 Y3.2538 I0.0061 J0.0057
G3 X10.5705 Y3.2531 I0.0035 J0.0076
G3 X10.5737 Y3.2536 I0.0003 J0.0083
G3 X10.5764 Y3.2553 I-0.0029 J0.0078
G2 X10.6616 Y3.2888 I0.0851 J-0.0915
G1 Z-0.36 F30
G1 X11.365 Y3.2888 F60
G2 X11.4499 Y3.2554 I0 J-0.125
G3 X11.4527 Y3.2537 I0.0057 J0.0061
G3 X11.4559 Y3.2532 I0.0029 J0.0078
G3 X11.4591 Y3.254 I-0.0003 J0.0083
G3 X11.4617 Y3.2559 I-0.0035 J0.0076
G3 X11.4634 Y3.2586 I-0.0061 J0.0057
G3 X11.4639 Y3.2616 I-0.0078 J0.0029
G1 X11.4639 Y3.2617
G3 X11.4632 Y3.265 I-0.0083 J-0.0001
G3 X11.4613 Y3.2676 I-0.0076 J-0.0035
G2 X11.4216 Y3.359 I0.0853 J0.0914
G1 X11.4216 Y3.4464
G2 X11.4613 Y3.5377 I0.125 J0
G3 X11.4632 Y3.5404 I-0.0057 J0.0061
G3 X11.4639 Y3.5437 I-0.0076 J0.0035
G1 X11.4639 Y3.5438
G3 X11.4634 Y3.5467 I-0.0083 J0
G3 X11.4617 Y3.5495 I-0.0078 J-0.0029
G3 X11.4591 Y3.5514 I-0.0061 J-0.0057
G3 X11.4559 Y3.5521 I-0.0035 J-0.0076
G3 X11.4527 Y3.5516 I-0.0003 J-0.0083
G3 X11.4499 Y3.5499 I0.0029 J-0.0078
G2 X11.365 Y3.5166 I-0.085 J0.0917
G1 X10.6616 Y3.5166
G2 X10.5764 Y3.5501 I0 J0.125
G3 X10.5737 Y3.5518 I-0.0057 J-0.0061
G3 X10.5705 Y3.5523 I-0.0029 J-0.0078
G3 X10.5673 Y3.5516 I0.0003 J-0.0083
G3 X10.5647 Y3.5497 I0.0035 J-0.0076
G3 X10.5629 Y3.5469 I0.0061 J-0.0057
G3 X10.5624 Y3.544 I0.0078 J-0.0029
G1 X10.5624 Y3.5438
G3 X10.5632 Y3.5405 I0.0083 J0.0001
G3 X10.5651 Y3.5379 I0.0076 J0.0035
G2 X10.6049 Y3.4464 I-0.0851 J-0.0915
G1 X10.6049 Y3.359
G2 X10.5651 Y3.2675 I-0.125 J0
G3 X10.5632 Y3.2648 I0.0057 J-0.0061
G3 X10.5624 Y3.2615 I0.0076 J-0.0035
G1 X10.5624 Y3.2614
G3 X10.5629 Y3.2585 I0.0083 J0
G3 X10.5647 Y3.2557 I0.0078 J0.0029
G3 X10.5673 Y3.2538 I0.0061 J0.0057
G3 X10.5705 Y3.2531 I0.0035 J0.0076
G3 X10.5737 Y3.2536 I0.0003 J0.0083
G3 X10.5764 Y3.2553 I-0.0029 J0.0078
G2 X10.6616 Y3.2888 I0.0851 J-0.0915
G1 Z-0.48 F30
G1 X11.365 Y3.2888 F60
G2 X11.4499 Y3.2554 I0 J-0.125
G3 X11.4527 Y3.2537 I0.0057 J0.0061
G3 X11.4559 Y3.2532 I0.0029 J0.0078
G3 X11.4591 Y3.254 I-0.0003 J0.0083
G3 X11.4617 Y3.2559 I-0.0035 J0.0076
G3 X11.4634 Y3.2586 I-0.0061 J0.0057
G3 X11.4639 Y3.2616 I-0.0078 J0.0029
G1 X11.4639 Y3.2617
G3 X11.4632 Y3.265 I-0.0083 J-0.0001
G3 X11.4613 Y3.2676 I-0.0076 J-0.0035
G2 X11.4216 Y3.359 I0.0853 J0.0914
G1 X11.4216 Y3.4464
G2 X11.4613 Y3.5377 I0.125 J0
G3 X11.4632 Y3.5404 I-0.0057 J0.0061
G3 X11.4639 Y3.5437 I-0.0076 J0.0035
G1 X11.4639 Y3.5438
G3 X11.4634 Y3.5467 I-0.0083 J0
G3 X11.4617 Y3.5495 I-0.0078 J-0.0029
G3 X11.4591 Y3.5514 I-0.0061 J-0.0057
G3 X11.4559 Y3.5521 I-0.0035 J-0.0076
G3 X11.4527 Y3.5516 I-0.0003 J-0.0083
G3 X11.4499 Y3.5499 I0.0029 J-0.0078
G2 X11.365 Y3.5166 I-0.085 J0.0917
G1 X10.6616 Y3.5166
G2 X10.5764 Y3.5501 I0 J0.125
G3 X10.5737 Y3.5518 I-0.0057 J-0.0061
G3 X10.5705 Y3.5523 I-0.0029 J-0.0078
G3 X10.5673 Y3.5516 I0.0003 J-0.0083
G3 X10.5647 Y3.5497 I0.0035 J-0.0076
G3 X10.5629 Y3.5469 I0.0061 J-0.0057
G3 X10.5624 Y3.544 I0.0078 J-0.0029
G1 X10.5624 Y3.5438
G3 X10.5632 Y3.5405 I0.0083 J0.0001
G3 X10.5651 Y3.5379 I0.0076 J0.0035
G2 X10.6049 Y3.4464 I-0.0851 J-0.0915
G1 X10.6049 Y3.359
G2 X10.5651 Y3.2675 I-0.125 J0
G3 X10.5632 Y3.2648 I0.0057 J-0.0061
G3 X10.5624 Y3.2615 I0.0076 J-0.0035
G1 X10.5624 Y3.2614
G3 X10.5629 Y3.2585 I0.0083 J0
G3 X10.5647 Y3.2557 I0.0078 J0.0029
G3 X10.5673 Y3.2538 I0.0061 J0.0057
G3 X10.5705 Y3.2531 I0.0035 J0.0076
G3 X10.5737 Y3.2536 I0.0003 J0.0083
G3 X10.5764 Y3.2553 I-0.0029 J0.0078
G2 X10.6616 Y3.2888 I0.0851 J-0.0915
G1 Z-0.55 F30
G1 X11.365 Y3.2888 F60
G2 X11.4499 Y3.2554 I0 J-0.125
G3 X11.4527 Y3.2537 I0.0057 J0.0061
G3 X11.4559 Y3.2532 I0.0029 J0.0078
G3 X11.4591 Y3.254 I-0.0003 J0.0083
G3 X11.4617 Y3.2559 I-0.0035 J0.0076
G3 X11.4634 Y3.2586 I-0.0061 J0.0057
G3 X11.4639 Y3.2616 I-0.0078 J0.0029
G1 X11.4639 Y3.2617
G3 X11.4632 Y3.265 I-0.0083 J-0.0001
G3 X11.4613 Y3.2676 I-0.0076 J-0.0035
G2 X11.4216 Y3.359 I0.0853 J0.0914
G1 X11.4216 Y3.4464
G2 X11.4613 Y3.5377 I0.125 J0
G3 X11.4632 Y3.5404 I-0.0057 J0.0061
G3 X11.4639 Y3.5437 I-0.0076 J0.0035
G1 X11.4639 Y3.5438
G3 X11.4634 Y3.5467 I-0.0083 J0
G3 X11.4617 Y3.5495 I-0.0078 J-0.0029
G3 X11.4591 Y3.5514 I-0.0061 J-0.0057
G3 X11.4559 Y3.5521 I-0.0035 J-0.0076
G3 X11.4527 Y3.5516 I-0.0003 J-0.0083
G3 X11.4499 Y3.5499 I0.0029 J-0.0078
G2 X11.365 Y3.5166 I-0.085 J0.0917
G1 X10.6616 Y3.5166
G2 X10.5764 Y3.5501 I0 J0.125
G3 X10.5737 Y3.5518 I-0.0057 J-0.0061
G3 X10.5705 Y3.5523 I-0.0029 J-0.0078
G3 X10.5673 Y3.5516 I0.0003 J-0.0083
G3 X10.5647 Y3.5497 I0.0035 J-0.0076
G3 X10.5629 Y3.5469 I0.0061 J-0.0057
G3 X10.5624 Y3.544 I0.0078 J-0.0029
G1 X10.5624 Y3.5438
G3 X10.5632 Y3.5405 I0.0083 J0.0001
G3 X10.5651 Y3.5379 I0.0076 J0.0035
G2 X10.6049 Y3.4464 I-0.0851 J-0.0915
G1 X10.6049 Y3.359
G2 X10.5651 Y3.2675 I-0.125 J0
G3 X10.5632 Y3.2648 I0.0057 J-0.0061
G3 X10.5624 Y3.2615 I0.0076 J-0.0035
G1 X10.5624 Y3.2614
G3 X10.5629 Y3.2585 I0.0083 J0
G3 X10.5647 Y3.2557 I0.0078 J0.0029
G3 X10.5673 Y3.2538 I0.0061 J0.0057
G3 X10.5705 Y3.2531 I0.0035 J0.0076
G3 X10.5737 Y3.2536 I0.0003 J0.0083
G3 X10.5764 Y3.2553 I-0.0029 J0.0078
G2 X10.6616 Y3.2888 I0.0851 J-0.0915
G0 Z0.15
G0 X2.3332 Y3.54
G1 Z-0.12 F30
G1 X1.6298 Y3.54 F60
G2 X1.5447 Y3.5734 I0 J0.125
G3 X1.5419 Y3.5751 I-0.0057 J-0.0061
G3 X1.5387 Y3.5757 I-0.0029 J-0.0078
G3 X1.5355 Y3.5749 I0.0003 J-0.0083
G3 X1.5329 Y3.573 I0.0035 J-0.0076
G3 X1.5312 Y3.5702 I0.0061 J-0.0057
G3 X1.5307 Y3.5673 I0.0078 J-0.0029
G1 X1.5307 Y3.5672
G3 X1.5314 Y3.5639 I0.0083 J0.0001
G3 X1.5333 Y3.5612 I0.0076 J0.0035
G2 X1.5732 Y3.4697 I-0.0851 J-0.0915
G1 X1.5732 Y3.3823
G2 X1.5333 Y3.2908 I-0.125 J0
G3 X1.5317 Y3.2887 I0.0057 J-0.0061
G3 X1.5308 Y3.2863 I0.0073 J-0.0041
G3 X1.5306 Y3.2847 I0.0082 J-0.0016
G3 X1.5307 Y3.2837 I0.0083 J0
G3 X1.5314 Y3.2812 I0.0083 J0.001
G3 X1.5329 Y3.279 I0.0076 J0.0035
G3 X1.5349 Y3.2774 I0.0061 J0.0057
G3 X1.5374 Y3.2765 I0.004 J0.0073
G3 X1.54 Y3.2764 I0.0016 J0.0082
G3 X1.5425 Y3.2771 I-0.001 J0.0083
G3 X1.5447 Y3.2786 I-0.0035 J0.0076
G2 X1.6298 Y3.3121 I0.0852 J-0.0915
G1 X2.3332 Y3.3121
G2 X2.4184 Y3.2786 I0 J-0.125
G3 X2.4206 Y3.2771 I0.0057 J0.0061
G3 X2.4231 Y3.2764 I0.0035 J0.0076
G3 X2.4257 Y3.2765 I0.001 J0.0083
G3 X2.4282 Y3.2774 I-0.0016 J0.0082
G3 X2.4302 Y3.279 I-0.004 J0.0073
G3 X2.4317 Y3.2811 I-0.0061 J0.0057
G3 X2.4324 Y3.2836 I-0.0076 J0.0035
G3 X2.4324 Y3.2847 I-0.0083 J0.001
G3 X2.4323 Y3.2863 I-0.0083 J0
G3 X2.4314 Y3.2887 I-0.0082 J-0.0016
G3 X2.4298 Y3.2908 I-0.0073 J-0.0041
G2 X2.3899 Y3.3823 I0.0851 J0.0916
G1 X2.3899 Y3.4697
G2 X2.4297 Y3.5612 I0.125 J0
G3 X2.4316 Y3.5639 I-0.0057 J0.0061
G3 X2.4324 Y3.5672 I-0.0076 J0.0035
G1 X2.4324 Y3.5673
G3 X2.4318 Y3.5702 I-0.0083 J0
G3 X2.4301 Y3.573 I-0.0078 J-0.0029
G3 X2.4275 Y3.5749 I-0.0061 J-0.0057
G3 X2.4243 Y3.5756 I-0.0035 J-0.0076
G3 X2.4211 Y3.5751 I-0.0003 J-0.0083
G3 X2.4184 Y3.5734 I0.0029 J-0.0078
G2 X2.3332 Y3.54 I-0.0851 J0.0915
G1 Z-0.24 F30
G1 X1.6298 Y3.54 F60
G2 X1.5447 Y3.5734 I0 J0.125
G3 X1.5419 Y3.5751 I-0.0057 J-0.0061
G3 X1.5387 Y3.5757 I-0.0029 J-0.0078
G3 X1.5355 Y3.5749 I0.0003 J-0.0083
G3 X1.5329 Y3.573 I0.0035 J-0.0076
G3 X1.5312 Y3.5702 I0.0061 J-0.0057
G3 X1.5307 Y3.5673 I0.0078 J-0.0029
G1 X1.5307 Y3.5672
G3 X1.5314 Y3.5639 I0.0083 J0.0001
G3 X1.5333 Y3.5612 I0.0076 J0.0035
G2 X1.5732 Y3.4697 I-0.0851 J-0.0915
G1 X1.5732 Y3.3823
G2 X1.5333 Y3.2908 I-0.125 J0
G3 X1.5317 Y3.2887 I0.0057 J-0.0061
G3 X1.5308 Y3.2863 I0.0073 J-0.0041
G3 X1.5306 Y3.2847 I0.0082 J-0.0016
G3 X1.5307 Y3.2837 I0.0083 J0
G3 X1.5314 Y3.2812 I0.0083 J0.001
G3 X1.5329 Y3.279 I0.0076 J0.0035
G3 X1.5349 Y3.2774 I0.0061 J0.0057
G3 X1.5374 Y3.2765 I0.004 J0.0073
G3 X1.54 Y3.2764 I0.0016 J0.0082
G3 X1.5425 Y3.2771 I-0.001 J0.0083
G3 X1.5447 Y3.2786 I-0.0035 J0.0076
G2 X1.6298 Y3.3121 I0.0852 J-0.0915
G1 X2.3332 Y3.3121
G2 X2.4184 Y3.2786 I0 J-0.125
G3 X2.4206 Y3.2771 I0.0057 J0.0061
G3 X2.4231 Y3.2764 I0.0035 J0.0076
G3 X2.4257 Y3.2765 I0.001 J0.0083
G3 X2.4282 Y3.2774 I-0.0016 J0.0082
G3 X2.4302 Y3.279 I-0.004 J0.0073
G3 X2.4317 Y3.2811 I-0.0061 J0.0057
G3 X2.4324 Y3.2836 I-0.0076 J0.0035
G3 X2.4324 Y3.2847 I-0.0083 J0.001
G3 X2.4323 Y3.2863 I-0.0083 J0
G3 X2.4314 Y3.2887 I-0.0082 J-0.0016
G3 X2.4298 Y3.2908 I-0.0073 J-0.0041
G2 X2.3899 Y3.3823 I0.0851 J0.0916
G1 X2.3899 Y3.4697
G2 X2.4297 Y3.5612 I0.125 J0
G3 X2.4316 Y3.5639 I-0.0057 J0.0061
G3 X2.4324 Y3.5672 I-0.0076 J0.0035
G1 X2.4324 Y3.5673
G3 X2.4318 Y3.5702 I-0.0083 J0
G3 X2.4301 Y3.573 I-0.0078 J-0.0029
G3 X2.4275 Y3.5749 I-0.0061 J-0.0057
G3 X2.4243 Y3.5756 I-0.0035 J-0.0076
G3 X2.4211 Y3.5751 I-0.0003 J-0.0083
G3 X2.4184 Y3.5734 I0.0029 J-0.0078
G2 X2.3332 Y3.54 I-0.0851 J0.0915
G1 Z-0.36 F30
G1 X1.6298 Y3.54 F60
G2 X1.5447 Y3.5734 I0 J0.125
G3 X1.5419 Y3.5751 I-0.0057 J-0.0061
G3 X1.5387 Y3.5757 I-0.0029 J-0.0078
G3 X1.5355 Y3.5749 I0.0003 J-0.0083
G3 X1.5329 Y3.573 I0.0035 J-0.0076
G3 X1.5312 Y3.5702 I0.0061 J-0.0057
G3 X1.5307 Y3.5673 I0.0078 J-0.0029
G1 X1.5307 Y3.5672
G3 X1.5314 Y3.5639 I0.0083 J0.0001
G3 X1.5333 Y3.5612 I0.0076 J0.0035
G2 X1.5732 Y3.4697 I-0.0851 J-0.0915
G1 X1.5732 Y3.3823
G2 X1.5333 Y3.2908 I-0.125 J0
G3 X1.5317 Y3.2887 I0.0057 J-0.0061
G3 X1.5308 Y3.2863 I0.0073 J-0.0041
G3 X1.5306 Y3.2847 I0.0082 J-0.0016
G3 X1.5307 Y3.2837 I0.0083 J0
G3 X1.5314 Y3.2812 I0.0083 J0.001
G3 X1.5329 Y3.279 I0.0076 J0.0035
G3 X1.5349 Y3.2774 I0.0061 J0.0057
G3 X1.5374 Y3.2765 I0.004 J0.0073
G3 X1.54 Y3.2764 I0.0016 J0.0082
G3 X1.5425 Y3.2771 I-0.001 J0.0083
G3 X1.5447 Y3.2786 I-0.0035 J0.0076
G2 X1.6298 Y3.3121 I0.0852 J-0.0915
G1 X2.3332 Y3.3121
G2 X2.4184 Y3.2786 I0 J-0.125
G3 X2.4206 Y3.2771 I0.0057 J0.0061
G3 X2.4231 Y3.2764 I0.0035 J0.0076
G3 X2.4257 Y3.2765 I0.001 J0.0083
G3 X2.4282 Y3.2774 I-0.0016 J0.0082
G3 X2.4302 Y3.279 I-0.004 J0.0073
G3 X2.4317 Y3.2811 I-0.0061 J0.0057
G3 X2.4324 Y3.2836 I-0.0076 J0.0035
G3 X2.4324 Y3.2847 I-0.0083 J0.001
G3 X2.4323 Y3.2863 I-0.0083 J0
G3 X2.4314 Y3.2887 I-0.0082 J-0.0016
G3 X2.4298 Y3.2908 I-0.0073 J-0.0041
G2 X2.3899 Y3.3823 I0.0851 J0.0916
G1 X2.3899 Y3.4697
G2 X2.4297 Y3.5612 I0.125 J0
G3 X2.4316 Y3.5639 I-0.0057 J0.0061
G3 X2.4324 Y3.5672 I-0.0076 J0.0035
G1 X2.4324 Y3.5673
G3 X2.4318 Y3.5702 I-0.0083 J0
G3 X2.4301 Y3.573 I-0.0078 J-0.0029
G3 X2.4275 Y3.5749 I-0.0061 J-0.0057
G3 X2.4243 Y3.5756 I-0.0035 J-0.0076
G3 X2.4211 Y3.5751 I-0.0003 J-0.0083
G3 X2.4184 Y3.5734 I0.0029 J-0.0078
G2 X2.3332 Y3.54 I-0.0851 J0.0915
G1 Z-0.48 F30
G1 X1.6298 Y3.54 F60
G2 X1.5447 Y3.5734 I0 J0.125
G3 X1.5419 Y3.5751 I-0.0057 J-0.0061
G3 X1.5387 Y3.5757 I-0.0029 J-0.0078
G3 X1.5355 Y3.5749 I0.0003 J-0.0083
G3 X1.5329 Y3.573 I0.0035 J-0.0076
G3 X1.5312 Y3.5702 I0.0061 J-0.0057
G3 X1.5307 Y3.5673 I0.0078 J-0.0029
G1 X1.5307 Y3.5672
G3 X1.5314 Y3.5639 I0.0083 J0.0001
G3 X1.5333 Y3.5612 I0.0076 J0.0035
G2 X1.5732 Y3.4697 I-0.0851 J-0.0915
G1 X1.5732 Y3.3823
G2 X1.5333 Y3.2908 I-0.125 J0
G3 X1.5317 Y3.2887 I0.0057 J-0.0061
G3 X1.5308 Y3.2863 I0.0073 J-0.0041
G3 X1.5306 Y3.2847 I0.0082 J-0.0016
G3 X1.5307 Y3.2837 I0.0083 J0
G3 X1.5314 Y3.2812 I0.0083 J0.001
G3 X1.5329 Y3.279 I0.0076 J0.0035
G3 X1.5349 Y3.2774 I0.0061 J0.0057
G3 X1.5374 Y3.2765 I0.004 J0.0073
G3 X1.54 Y3.2764 I0.0016 J0.0082
G3 X1.5425 Y3.2771 I-0.001 J0.0083
G3 X1.5447 Y3.2786 I-0.0035 J0.0076
G2 X1.6298 Y3.3121 I0.0852 J-0.0915
G1 X2.3332 Y3.3121
G2 X2.4184 Y3.2786 I0 J-0.125
G3 X2.4206 Y3.2771 I0.0057 J0.0061
G3 X2.4231 Y3.2764 I0.0035 J0.0076
G3 X2.4257 Y3.2765 I0.001 J0.0083
G3 X2.4282 Y3.2774 I-0.0016 J0.0082
G3 X2.4302 Y3.279 I-0.004 J0.0073
G3 X2.4317 Y3.2811 I-0.0061 J0.0057
G3 X2.4324 Y3.2836 I-0.0076 J0.0035
G3 X2.4324 Y3.2847 I-0.0083 J0.001
G3 X2.4323 Y3.2863 I-0.0083 J0
G3 X2.4314 Y3.2887 I-0.0082 J-0.0016
G3 X2.4298 Y3.2908 I-0.0073 J-0.0041
G2 X2.3899 Y3.3823 I0.0851 J0.0916
G1 X2.3899 Y3.4697
G2 X2.4297 Y3.5612 I0.125 J0
G3 X2.4316 Y3.5639 I-0.0057 J0.0061
G3 X2.4324 Y3.5672 I-0.0076 J0.0035
G1 X2.4324 Y3.5673
G3 X2.4318 Y3.5702 I-0.0083 J0
G3 X2.4301 Y3.573 I-0.0078 J-0.0029
G3 X2.4275 Y3.5749 I-0.0061 J-0.0057
G3 X2.4243 Y3.5756 I-0.0035 J-0.0076
G3 X2.4211 Y3.5751 I-0.0003 J-0.0083
G3 X2.4184 Y3.5734 I0.0029 J-0.0078
G2 X2.3332 Y3.54 I-0.0851 J0.0915
G1 Z-0.55 F30
G1 X1.6298 Y3.54 F60
G2 X1.5447 Y3.5734 I0 J0.125
G3 X1.5419 Y3.5751 I-0.0057 J-0.0061
G3 X1.5387 Y3.5757 I-0.0029 J-0.0078
G3 X1.5355 Y3.5749 I0.0003 J-0.0083
G3 X1.5329 Y3.573 I0.0035 J-0.0076
G3 X1.5312 Y3.5702 I0.0061 J-0.0057
G3 X1.5307 Y3.5673 I0.0078 J-0.0029
G1 X1.5307 Y3.5672
G3 X1.5314 Y3.5639 I0.0083 J0.0001
G3 X1.5333 Y3.5612 I0.0076 J0.0035
G2 X1.5732 Y3.4697 I-0.0851 J-0.0915
G1 X1.5732 Y3.3823
G2 X1.5333 Y3.2908 I-0.125 J0
G3 X1.5317 Y3.2887 I0.0057 J-0.0061
G3 X1.5308 Y3.2863 I0.0073 J-0.0041
G3 X1.5306 Y3.2847 I0.0082 J-0.0016
G3 X1.5307 Y3.2837 I0.0083 J0
G3 X1.5314 Y3.2812 I0.0083 J0.001
G3 X1.5329 Y3.279 I0.0076 J0.0035
G3 X1.5349 Y3.2774 I0.0061 J0.0057
G3 X1.5374 Y3.2765 I0.004 J0.0073
G3 X1.54 Y3.2764 I0.0016 J0.0082
G3 X1.5425 Y3.2771 I-0.001 J0.0083
G3 X1.5447 Y3.2786 I-0.0035 J0.0076
G2 X1.6298 Y3.3121 I0.0852 J-0.0915
G1 X2.3332 Y3.3121
G2 X2.4184 Y3.2786 I0 J-0.125
G3 X2.4206 Y3.2771 I0.0057 J0.0061
G3 X2.4231 Y3.2764 I0.0035 J0.0076
G3 X2.4257 Y3.2765 I0.001 J0.0083
G3 X2.4282 Y3.2774 I-0.0016 J0.0082
G3 X2.4302 Y3.279 I-0.004 J0.0073
G3 X2.4317 Y3.2811 I-0.0061 J0.0057
G3 X2.4324 Y3.2836 I-0.0076 J0.0035
G3 X2.4324 Y3.2847 I-0.0083 J0.001
G3 X2.4323 Y3.2863 I-0.0083 J0
G3 X2.4314 Y3.2887 I-0.0082 J-0.0016
G3 X2.4298 Y3.2908 I-0.0073 J-0.0041
G2 X2.3899 Y3.3823 I0.0851 J0.0916
G1 X2.3899 Y3.4697
G2 X2.4297 Y3.5612 I0.125 J0
G3 X2.4316 Y3.5639 I-0.0057 J0.0061
G3 X2.4324 Y3.5672 I-0.0076 J0.0035
G1 X2.4324 Y3.5673
G3 X2.4318 Y3.5702 I-0.0083 J0
G3 X2.4301 Y3.573 I-0.0078 J-0.0029
G3 X2.4275 Y3.5749 I-0.0061 J-0.0057
G3 X2.4243 Y3.5756 I-0.0035 J-0.0076
G3 X2.4211 Y3.5751 I-0.0003 J-0.0083
G3 X2.4184 Y3.5734 I0.0029 J-0.0078
G2 X2.3332 Y3.54 I-0.0851 J0.0915
G0 Z0.15
G0 X2.3332 Y5.6733
G1 Z-0.12 F30
G1 X1.6298 Y5.6733 F60
G2 X1.5447 Y5.7068 I0 J0.125
G3 X1.5419 Y5.7085 I-0.0057 J-0.0061
G3 X1.5387 Y5.709 I-0.0029 J-0.0078
G3 X1.5355 Y5.7082 I0.0003 J-0.0083
G3 X1.5329 Y5.7063 I0.0035 J-0.0076
G3 X1.5312 Y5.7036 I0.0061 J-0.0057
G3 X1.5307 Y5.7007 I0.0078 J-0.0029
G1 X1.5307 Y5.7005
G3 X1.5314 Y5.6972 I0.0083 J0.0001
G3 X1.5333 Y5.6946 I0.0076 J0.0035
G2 X1.5732 Y5.603 I-0.0851 J-0.0915
G1 X1.5732 Y5.5157
G2 X1.5334 Y5.4242 I-0.125 J0
G3 X1.5315 Y5.4215 I0.0057 J-0.0061
G3 X1.5307 Y5.4182 I0.0076 J-0.0035
G1 X1.5307 Y5.4181
G3 X1.5312 Y5.4152 I0.0083 J0
G3 X1.5329 Y5.4124 I0.0078 J0.0029
G3 X1.5356 Y5.4105 I0.0061 J0.0057
G3 X1.5387 Y5.4097 I0.0035 J0.0076
G3 X1.5419 Y5.4103 I0.0003 J0.0083
G3 X1.5447 Y5.412 I-0.0029 J0.0078
G2 X1.6298 Y5.4454 I0.0851 J-0.0915
G1 X2.3332 Y5.4454
G2 X2.4183 Y5.412 I0 J-0.125
G3 X2.4211 Y5.4103 I0.0057 J0.0061
G3 X2.4243 Y5.4098 I0.0029 J0.0078
G3 X2.4274 Y5.4105 I-0.0003 J0.0083
G3 X2.4301 Y5.4124 I-0.0035 J0.0076
G3 X2.4318 Y5.4152 I-0.0061 J0.0057
G3 X2.4323 Y5.4181 I-0.0078 J0.0029
G1 X2.4323 Y5.4183
G3 X2.4316 Y5.4216 I-0.0083 J-0.0001
G3 X2.4297 Y5.4242 I-0.0076 J-0.0035
G2 X2.3899 Y5.5157 I0.0852 J0.0915
G1 X2.3899 Y5.603
G2 X2.4297 Y5.6946 I0.125 J0
G3 X2.4313 Y5.6966 I-0.0057 J0.0061
G3 X2.4322 Y5.6991 I-0.0073 J0.004
G3 X2.4324 Y5.7007 I-0.0082 J0.0016
G3 X2.4323 Y5.7017 I-0.0083 J0
G3 X2.4316 Y5.7042 I-0.0083 J-0.001
G3 X2.4302 Y5.7064 I-0.0076 J-0.0035
G3 X2.4281 Y5.708 I-0.0061 J-0.0057
G3 X2.4257 Y5.7089 I-0.004 J-0.0073
G3 X2.4231 Y5.7089 I-0.0016 J-0.0082
G3 X2.4205 Y5.7082 I0.001 J-0.0083
G3 X2.4184 Y5.7068 I0.0035 J-0.0076
G2 X2.3332 Y5.6733 I-0.0852 J0.0915
G1 Z-0.24 F30
G1 X1.6298 Y5.6733 F60
G2 X1.5447 Y5.7068 I0 J0.125
G3 X1.5419 Y5.7085 I-0.0057 J-0.0061
G3 X1.5387 Y5.709 I-0.0029 J-0.0078
G3 X1.5355 Y5.7082 I0.0003 J-0.0083
G3 X1.5329 Y5.7063 I0.0035 J-0.0076
G3 X1.5312 Y5.7036 I0.0061 J-0.0057
G3 X1.5307 Y5.7007 I0.0078 J-0.0029
G1 X1.5307 Y5.7005
G3 X1.5314 Y5.6972 I0.0083 J0.0001
G3 X1.5333 Y5.6946 I0.0076 J0.0035
G2 X1.5732 Y5.603 I-0.0851 J-0.0915
G1 X1.5732 Y5.5157
G2 X1.5334 Y5.4242 I-0.125 J0
G3 X1.5315 Y5.4215 I0.0057 J-0.0061
G3 X1.5307 Y5.4182 I0.0076 J-0.0035
G1 X1.5307 Y5.4181
G3 X1.5312 Y5.4152 I0.0083 J0
G3 X1.5329 Y5.4124 I0.0078 J0.0029
G3 X1.5356 Y5.4105 I0.0061 J0.0057
G3 X1.5387 Y5.4097 I0.0035 J0.0076
G3 X1.5419 Y5.4103 I0.0003 J0.0083
G3 X1.5447 Y5.412 I-0.0029 J0.0078
G2 X1.6298 Y5.4454 I0.0851 J-0.0915
G1 X2.3332 Y5.4454
G2 X2.4183 Y5.412 I0 J-0.125
G3 X2.4211 Y5.4103 I0.0057 J0.0061
G3 X2.4243 Y5.4098 I0.0029 J0.0078
G3 X2.4274 Y5.4105 I-0.0003 J0.0083
G3 X2.4301 Y5.4124 I-0.0035 J0.0076
G3 X2.4318 Y5.4152 I-0.0061 J0.0057
G3 X2.4323 Y5.4181 I-0.0078 J0.0029
G1 X2.4323 Y5.4183
G3 X2.4316 Y5.4216 I-0.0083 J-0.0001
G3 X2.4297 Y5.4242 I-0.0076 J-0.0035
G2 X2.3899 Y5.5157 I0.0852 J0.0915
G1 X2.3899 Y5.603
G2 X2.4297 Y5.6946 I0.125 J0
G3 X2.4313 Y5.6966 I-0.0057 J0.0061
G3 X2.4322 Y5.6991 I-0.0073 J0.004
G3 X2.4324 Y5.7007 I-0.0082 J0.0016
G3 X2.4323 Y5.7017 I-0.0083 J0
G3 X2.4316 Y5.7042 I-0.0083 J-0.001
G3 X2.4302 Y5.7064 I-0.0076 J-0.0035
G3 X2.4281 Y5.708 I-0.0061 J-0.0057
G3 X2.4257 Y5.7089 I-0.004 J-0.0073
G3 X2.4231 Y5.7089 I-0.0016 J-0.0082
G3 X2.4205 Y5.7082 I0.001 J-0.0083
G3 X2.4184 Y5.7068 I0.0035 J-0.0076
G2 X2.3332 Y5.6733 I-0.0852 J0.0915
G1 Z-0.36 F30
G1 X1.6298 Y5.6733 F60
G2 X1.5447 Y5.7068 I0 J0.125
G3 X1.5419 Y5.7085 I-0.0057 J-0.0061
G3 X1.5387 Y5.709 I-0.0029 J-0.0078
G3 X1.5355 Y5.7082 I0.0003 J-0.0083
G3 X1.5329 Y5.7063 I0.0035 J-0.0076
G3 X1.5312 Y5.7036 I0.0061 J-0.0057
G3 X1.5307 Y5.7007 I0.0078 J-0.0029
G1 X1.5307 Y5.7005
G3 X1.5314 Y5.6972 I0.0083 J0.0001
G3 X1.5333 Y5.6946 I0.0076 J0.0035
G2 X1.5732 Y5.603 I-0.0851 J-0.0915
G1 X1.5732 Y5.5157
G2 X1.5334 Y5.4242 I-0.125 J0
G3 X1.5315 Y5.4215 I0.0057 J-0.0061
G3 X1.5307 Y5.4182 I0.0076 J-0.0035
G1 X1.5307 Y5.4181
G3 X1.5312 Y5.4152 I0.0083 J0
G3 X1.5329 Y5.4124 I0.0078 J0.0029
G3 X1.5356 Y5.4105 I0.0061 J0.0057
G3 X1.5387 Y5.4097 I0.0035 J0.0076
G3 X1.5419 Y5.4103 I0.0003 J0.0083
G3 X1.5447 Y5.412 I-0.0029 J0.0078
G2 X1.6298 Y5.4454 I0.0851 J-0.0915
G1 X2.3332 Y5.4454
G2 X2.4183 Y5.412 I0 J-0.125
G3 X2.4211 Y5.4103 I0.0057 J0.0061
G3 X2.4243 Y5.4098 I0.0029 J0.0078
G3 X2.4274 Y5.4105 I-0.0003 J0.0083
G3 X2.4301 Y5.4124 I-0.0035 J0.0076
G3 X2.4318 Y5.4152 I-0.0061 J0.0057
G3 X2.4323 Y5.4181 I-0.0078 J0.0029
G1 X2.4323 Y5.4183
G3 X2.4316 Y5.4216 I-0.0083 J-0.0001
G3 X2.4297 Y5.4242 I-0.0076 J-0.0035
G2 X2.3899 Y5.5157 I0.0852 J0.0915
G1 X2.3899 Y5.603
G2 X2.4297 Y5.6946 I0.125 J0
G3 X2.4313 Y5.6966 I-0.0057 J0.0061
G3 X2.4322 Y5.6991 I-0.0073 J0.004
G3 X2.4324 Y5.7007 I-0.0082 J0.0016
G3 X2.4323 Y5.7017 I-0.0083 J0
G3 X2.4316 Y5.7042 I-0.0083 J-0.001
G3 X2.4302 Y5.7064 I-0.0076 J-0.0035
G3 X2.4281 Y5.708 I-0.0061 J-0.0057
G3 X2.4257 Y5.7089 I-0.004 J-0.0073
G3 X2.4231 Y5.7089 I-0.0016 J-0.0082
G3 X2.4205 Y5.7082 I0.001 J-0.0083
G3 X2.4184 Y5.7068 I0.0035 J-0.0076
G2 X2.3332 Y5.6733 I-0.0852 J0.0915
G1 Z-0.48 F30
G1 X1.6298 Y5.6733 F60
G2 X1.5447 Y5.7068 I0 J0.125
G3 X1.5419 Y5.7085 I-0.0057 J-0.0061
G3 X1.5387 Y5.709 I-0.0029 J-0.0078
G3 X1.5355 Y5.7082 I0.0003 J-0.0083
G3 X1.5329 Y5.7063 I0.0035 J-0.0076
G3 X1.5312 Y5.7036 I0.0061 J-0.0057
G3 X1.5307 Y5.7007 I0.0078 J-0.0029
G1 X1.5307 Y5.7005
G3 X1.5314 Y5.6972 I0.0083 J0.0001
G3 X1.5333 Y5.6946 I0.0076 J0.0035
G2 X1.5732 Y5.603 I-0.0851 J-0.0915
G1 X1.5732 Y5.5157
G2 X1.5334 Y5.4242 I-0.125 J0
G3 X1.5315 Y5.4215 I0.0057 J-0.0061
G3 X1.5307 Y5.4182 I0.0076 J-0.0035
G1 X1.5307 Y5.4181
G3 X1.5312 Y5.4152 I0.0083 J0
G3 X1.5329 Y5.4124 I0.0078 J0.0029
G3 X1.5356 Y5.4105 I0.0061 J0.0057
G3 X1.5387 Y5.4097 I0.0035 J0.0076
G3 X1.5419 Y5.4103 I0.0003 J0.0083
G3 X1.5447 Y5.412 I-0.0029 J0.0078
G2 X1.6298 Y5.4454 I0.0851 J-0.0915
G1 X2.3332 Y5.4454
G2 X2.4183 Y5.412 I0 J-0.125
G3 X2.4211 Y5.4103 I0.0057 J0.0061
G3 X2.4243 Y5.4098 I0.0029 J0.0078
G3 X2.4274 Y5.4105 I-0.0003 J0.0083
G3 X2.4301 Y5.4124 I-0.0035 J0.0076
G3 X2.4318 Y5.4152 I-0.0061 J0.0057
G3 X2.4323 Y5.4181 I-0.0078 J0.0029
G1 X2.4323 Y5.4183
G3 X2.4316 Y5.4216 I-0.0083 J-0.0001
G3 X2.4297 Y5.4242 I-0.0076 J-0.0035
G2 X2.3899 Y5.5157 I0.0852 J0.0915
G1 X2.3899 Y5.603
G2 X2.4297 Y5.6946 I0.125 J0
G3 X2.4313 Y5.6966 I-0.0057 J0.0061
G3 X2.4322 Y5.6991 I-0.0073 J0.004
G3 X2.4324 Y5.7007 I-0.0082 J0.0016
G3 X2.4323 Y5.7017 I-0.0083 J0
G3 X2.4316 Y5.7042 I-0.0083 J-0.001
G3 X2.4302 Y5.7064 I-0.0076 J-0.0035
G3 X2.4281 Y5.708 I-0.0061 J-0.0057
G3 X2.4257 Y5.7089 I-0.004 J-0.0073
G3 X2.4231 Y5.7089 I-0.0016 J-0.0082
G3 X2.4205 Y5.7082 I0.001 J-0.0083
G3 X2.4184 Y5.7068 I0.0035 J-0.0076
G2 X2.3332 Y5.6733 I-0.0852 J0.0915
G1 Z-0.55 F30
G1 X1.6298 Y5.6733 F60
G2 X1.5447 Y5.7068 I0 J0.125
G3 X1.5419 Y5.7085 I-0.0057 J-0.0061
G3 X1.5387 Y5.709 I-0.0029 J-0.0078
G3 X1.5355 Y5.7082 I0.0003 J-0.0083
G3 X1.5329 Y5.7063 I0.0035 J-0.0076
G3 X1.5312 Y5.7036 I0.0061 J-0.0057
G3 X1.5307 Y5.7007 I0.0078 J-0.0029
G1 X1.5307 Y5.7005
G3 X1.5314 Y5.6972 I0.0083 J0.0001
G3 X1.5333 Y5.6946 I0.0076 J0.0035
G2 X1.5732 Y5.603 I-0.0851 J-0.0915
G1 X1.5732 Y5.5157
G2 X1.5334 Y5.4242 I-0.125 J0
G3 X1.5315 Y5.4215 I0.0057 J-0.0061
G3 X1.5307 Y5.4182 I0.0076 J-0.0035
G1 X1.5307 Y5.4181
G3 X1.5312 Y5.4152 I0.0083 J0
G3 X1.5329 Y5.4124 I0.0078 J0.0029
G3 X1.5356 Y5.4105 I0.0061 J0.0057
G3 X1.5387 Y5.4097 I0.0035 J0.0076
G3 X1.5419 Y5.4103 I0.0003 J0.0083
G3 X1.5447 Y5.412 I-0.0029 J0.0078
G2 X1.6298 Y5.4454 I0.0851 J-0.0915
G1 X2.3332 Y5.4454
G2 X2.4183 Y5.412 I0 J-0.125
G3 X2.4211 Y5.4103 I0.0057 J0.0061
G3 X2.4243 Y5.4098 I0.0029 J0.0078
G3 X2.4274 Y5.4105 I-0.0003 J0.0083
G3 X2.4301 Y5.4124 I-0.0035 J0.0076
G3 X2.4318 Y5.4152 I-0.0061 J0.0057
G3 X2.4323 Y5.4181 I-0.0078 J0.0029
G1 X2.4323 Y5.4183
G3 X2.4316 Y5.4216 I-0.0083 J-0.0001
G3 X2.4297 Y5.4242 I-0.0076 J-0.0035
G2 X2.3899 Y5.5157 I0.0852 J0.0915
G1 X2.3899 Y5.603
G2 X2.4297 Y5.6946 I0.125 J0
G3 X2.4313 Y5.6966 I-0.0057 J0.0061
G3 X2.4322 Y5.6991 I-0.0073 J0.004
G3 X2.4324 Y5.7007 I-0.0082 J0.0016
G3 X2.4323 Y5.7017 I-0.0083 J0
G3 X2.4316 Y5.7042 I-0.0083 J-0.001
G3 X2.4302 Y5.7064 I-0.0076 J-0.0035
G3 X2.4281 Y5.708 I-0.0061 J-0.0057
G3 X2.4257 Y5.7089 I-0.004 J-0.0073
G3 X2.4231 Y5.7089 I-0.0016 J-0.0082
G3 X2.4205 Y5.7082 I0.001 J-0.0083
G3 X2.4184 Y5.7068 I0.0035 J-0.0076
G2 X2.3332 Y5.6733 I-0.0852 J0.0915
G0 Z0.15
G0 X11.1683 Y4.4694
G1 Z-0.12 F30
G3 X11.1565 Y4.5287 I-0.155 J0 F60
G3 X11.1229 Y4.579 I-0.1432 J-0.0593
G3 X11.0726 Y4.6126 I-0.1096 J-0.1096
G3 X11.0133 Y4.6244 I-0.0593 J-0.1432
G3 X10.954 Y4.6126 I0 J-0.155
G3 X10.9037 Y4.579 I0.0593 J-0.1432
G3 X10.8701 Y4.5287 I0.1096 J-0.1096
G3 X10.8583 Y4.4694 I0.1432 J-0.0593
G3 X10.8701 Y4.41 I0.155 J0
G3 X10.9037 Y4.3598 I0.1432 J0.0593
G3 X10.954 Y4.3262 I0.1096 J0.1096
G3 X11.0133 Y4.3144 I0.0593 J0.1432
G3 X11.0726 Y4.3262 I0 J0.155
G3 X11.1229 Y4.3598 I-0.0593 J0.1432
G3 X11.1565 Y4.41 I-0.1096 J0.1096
G3 X11.1683 Y4.4694 I-0.1432 J0.0593
G1 Z-0.24 F30
G3 X11.1565 Y4.5287 I-0.155 J0 F60
G3 X11.1229 Y4.579 I-0.1432 J-0.0593
G3 X11.0726 Y4.6126 I-0.1096 J-0.1096
G3 X11.0133 Y4.6244 I-0.0593 J-0.1432
G3 X10.954 Y4.6126 I0 J-0.155
G3 X10.9037 Y4.579 I0.0593 J-0.1432
G3 X10.8701 Y4.5287 I0.1096 J-0.1096
G3 X10.8583 Y4.4694 I0.1432 J-0.0593
G3 X10.8701 Y4.41 I0.155 J0
G3 X10.9037 Y4.3598 I0.1432 J0.0593
G3 X10.954 Y4.3262 I0.1096 J0.1096
G3 X11.0133 Y4.3144 I0.0593 J0.1432
G3 X11.0726 Y4.3262 I0 J0.155
G3 X11.1229 Y4.3598 I-0.0593 J0.1432
G3 X11.1565 Y4.41 I-0.1096 J0.1096
G3 X11.1683 Y4.4694 I-0.1432 J0.0593
G1 Z-0.36 F30
G3 X11.1565 Y4.5287 I-0.155 J0 F60
G3 X11.1229 Y4.579 I-0.1432 J-0.0593
G3 X11.0726 Y4.6126 I-0.1096 J-0.1096
G3 X11.0133 Y4.6244 I-0.0593 J-0.1432
G3 X10.954 Y4.6126 I0 J-0.155
G3 X10.9037 Y4.579 I0.0593 J-0.1432
G3 X10.8701 Y4.5287 I0.1096 J-0.1096
G3 X10.8583 Y4.4694 I0.1432 J-0.0593
G3 X10.8701 Y4.41 I0.155 J0
G3 X10.9037 Y4.3598 I0.1432 J0.0593
G3 X10.954 Y4.3262 I0.1096 J0.1096
G3 X11.0133 Y4.3144 I0.0593 J0.1432
G3 X11.0726 Y4.3262 I0 J0.155
G3 X11.1229 Y4.3598 I-0.0593 J0.1432
G3 X11.1565 Y4.41 I-0.1096 J0.1096
G3 X11.1683 Y4.4694 I-0.1432 J0.0593
G1 Z-0.48 F30
G3 X11.1565 Y4.5287 I-0.155 J0 F60
G3 X11.1229 Y4.579 I-0.1432 J-0.0593
G3 X11.0726 Y4.6126 I-0.1096 J-0.1096
G3 X11.0133 Y4.6244 I-0.0593 J-0.1432
G3 X10.954 Y4.6126 I0 J-0.155
G3 X10.9037 Y4.579 I0.0593 J-0.1432
G3 X10.8701 Y4.5287 I0.1096 J-0.1096
G3 X10.8583 Y4.4694 I0.1432 J-0.0593
G3 X10.8701 Y4.41 I0.155 J0
G3 X10.9037 Y4.3598 I0.1432 J0.0593
G3 X10.954 Y4.3262 I0.1096 J0.1096
G3 X11.0133 Y4.3144 I0.0593 J0.1432
G3 X11.0726 Y4.3262 I0 J0.155
G3 X11.1229 Y4.3598 I-0.0593 J0.1432
G3 X11.1565 Y4.41 I-0.1096 J0.1096
G3 X11.1683 Y4.4694 I-0.1432 J0.0593
G1 Z-0.55 F30
G3 X11.1565 Y4.5287 I-0.155 J0 F60
G3 X11.1229 Y4.579 I-0.1432 J-0.0593
G3 X11.0726 Y4.6126 I-0.1096 J-0.1096
G3 X11.0133 Y4.6244 I-0.0593 J-0.1432
G3 X10.954 Y4.6126 I0 J-0.155
G3 X10.9037 Y4.579 I0.0593 J-0.1432
G3 X10.8701 Y4.5287 I0.1096 J-0.1096
G3 X10.8583 Y4.4694 I0.1432 J-0.0593
G3 X10.8701 Y4.41 I0.155 J0
G3 X10.9037 Y4.3598 I0.1432 J0.0593
G3 X10.954 Y4.3262 I0.1096 J0.1096
G3 X11.0133 Y4.3144 I0.0593 J0.1432
G3 X11.0726 Y4.3262 I0 J0.155
G3 X11.1229 Y4.3598 I-0.0593 J0.1432
G3 X11.1565 Y4.41 I-0.1096 J0.1096
G3 X11.1683 Y4.4694 I-0.1432 J0.0593
G0 Z0.15
G0 X6.4752 Y4.3418
G1 Z-0.12 F30
G3 X6.5231 Y4.3343 I0.0479 J0.1474 F60
G3 X6.571 Y4.3418 I0 J0.155
G3 X6.6142 Y4.3639 I-0.0479 J0.1474
G3 X6.6485 Y4.3982 I-0.0911 J0.1254
G3 X6.6705 Y4.4414 I-0.1254 J0.0911
G3 X6.6781 Y4.4893 I-0.1474 J0.0479
G1 X6.6781 Y4.4893
G1 X6.6781 Y4.4893
G3 X6.6705 Y4.5372 I-0.155 J0
G3 X6.6485 Y4.5804 I-0.1474 J-0.0479
G3 X6.6142 Y4.6147 I-0.1254 J-0.0911
G3 X6.571 Y4.6367 I-0.0911 J-0.1254
G3 X6.5231 Y4.6443 I-0.0479 J-0.1474
G3 X6.4752 Y4.6367 I0 J-0.155
G3 X6.432 Y4.6147 I0.0479 J-0.1474
G3 X6.3977 Y4.5804 I0.0911 J-0.1254
G3 X6.3757 Y4.5372 I0.1254 J-0.0911
G3 X6.3681 Y4.4893 I0.1474 J-0.0479
G1 X6.3681 Y4.4893
G1 X6.3681 Y4.4893
G3 X6.3757 Y4.4414 I0.155 J0
G3 X6.3977 Y4.3982 I0.1474 J0.0479
G3 X6.432 Y4.3639 I0.1254 J0.0911
G3 X6.4752 Y4.3418 I0.0911 J0.1254
G1 Z-0.24 F30
G3 X6.5231 Y4.3343 I0.0479 J0.1474 F60
G3 X6.571 Y4.3418 I0 J0.155
G3 X6.6142 Y4.3639 I-0.0479 J0.1474
G3 X6.6485 Y4.3982 I-0.0911 J0.1254
G3 X6.6705 Y4.4414 I-0.1254 J0.0911
G3 X6.6781 Y4.4893 I-0.1474 J0.0479
G1 X6.6781 Y4.4893
G1 X6.6781 Y4.4893
G3 X6.6705 Y4.5372 I-0.155 J0
G3 X6.6485 Y4.5804 I-0.1474 J-0.0479
G3 X6.6142 Y4.6147 I-0.1254 J-0.0911
G3 X6.571 Y4.6367 I-0.0911 J-0.1254
G3 X6.5231 Y4.6443 I-0.0479 J-0.1474
G3 X6.4752 Y4.6367 I0 J-0.155
G3 X6.432 Y4.6147 I0.0479 J-0.1474
G3 X6.3977 Y4.5804 I0.0911 J-0.1254
G3 X6.3757 Y4.5372 I0.1254 J-0.0911
G3 X6.3681 Y4.4893 I0.1474 J-0.0479
G1 X6.3681 Y4.4893
G1 X6.3681 Y4.4893
G3 X6.3757 Y4.4414 I0.155 J0
G3 X6.3977 Y4.3982 I0.1474 J0.0479
G3 X6.432 Y4.3639 I0.1254 J0.0911
G3 X6.4752 Y4.3418 I0.0911 J0.1254
G1 Z-0.36 F30
G3 X6.5231 Y4.3343 I0.0479 J0.1474 F60
G3 X6.571 Y4.3418 I0 J0.155
G3 X6.6142 Y4.3639 I-0.0479 J0.1474
G3 X6.6485 Y4.3982 I-0.0911 J0.1254
G3 X6.6705 Y4.4414 I-0.1254 J0.0911
G3 X6.6781 Y4.4893 I-0.1474 J0.0479
G1 X6.6781 Y4.4893
G1 X6.6781 Y4.4893
G3 X6.6705 Y4.5372 I-0.155 J0
G3 X6.6485 Y4.5804 I-0.1474 J-0.0479
G3 X6.6142 Y4.6147 I-0.1254 J-0.0911
G3 X6.571 Y4.6367 I-0.0911 J-0.1254
G3 X6.5231 Y4.6443 I-0.0479 J-0.1474
G3 X6.4752 Y4.6367 I0 J-0.155
G3 X6.432 Y4.6147 I0.0479 J-0.1474
G3 X6.3977 Y4.5804 I0.0911 J-0.1254
G3 X6.3757 Y4.5372 I0.1254 J-0.0911
G3 X6.3681 Y4.4893 I0.1474 J-0.0479
G1 X6.3681 Y4.4893
G1 X6.3681 Y4.4893
G3 X6.3757 Y4.4414 I0.155 J0
G3 X6.3977 Y4.3982 I0.1474 J0.0479
G3 X6.432 Y4.3639 I0.1254 J0.0911
G3 X6.4752 Y4.3418 I0.0911 J0.1254
G1 Z-0.48 F30
G3 X6.5231 Y4.3343 I0.0479 J0.1474 F60
G3 X6.571 Y4.3418 I0 J0.155
G3 X6.6142 Y4.3639 I-0.0479 J0.1474
G3 X6.6485 Y4.3982 I-0.0911 J0.1254
G3 X6.6705 Y4.4414 I-0.1254 J0.0911
G3 X6.6781 Y4.4893 I-0.1474 J0.0479
G1 X6.6781 Y4.4893
G1 X6.6781 Y4.4893
G3 X6.6705 Y4.5372 I-0.155 J0
G3 X6.6485 Y4.5804 I-0.1474 J-0.0479
G3 X6.6142 Y4.6147 I-0.1254 J-0.0911
G3 X6.571 Y4.6367 I-0.0911 J-0.1254
G3 X6.5231 Y4.6443 I-0.0479 J-0.1474
G3 X6.4752 Y4.6367 I0 J-0.155
G3 X6.432 Y4.6147 I0.0479 J-0.1474
G3 X6.3977 Y4.5804 I0.0911 J-0.1254
G3 X6.3757 Y4.5372 I0.1254 J-0.0911
G3 X6.3681 Y4.4893 I0.1474 J-0.0479
G1 X6.3681 Y4.4893
G1 X6.3681 Y4.4893
G3 X6.3757 Y4.4414 I0.155 J0
G3 X6.3977 Y4.3982 I0.1474 J0.0479
G3 X6.432 Y4.3639 I0.1254 J0.0911
G3 X6.4752 Y4.3418 I0.0911 J0.1254
G1 Z-0.55 F30
G3 X6.5231 Y4.3343 I0.0479 J0.1474 F60
G3 X6.571 Y4.3418 I0 J0.155
G3 X6.6142 Y4.3639 I-0.0479 J0.1474
G3 X6.6485 Y4.3982 I-0.0911 J0.1254
G3 X6.6705 Y4.4414 I-0.1254 J0.0911
G3 X6.6781 Y4.4893 I-0.1474 J0.0479
G1 X6.6781 Y4.4893
G1 X6.6781 Y4.4893
G3 X6.6705 Y4.5372 I-0.155 J0
G3 X6.6485 Y4.5804 I-0.1474 J-0.0479
G3 X6.6142 Y4.6147 I-0.1254 J-0.0911
G3 X6.571 Y4.6367 I-0.0911 J-0.1254
G3 X6.5231 Y4.6443 I-0.0479 J-0.1474
G3 X6.4752 Y4.6367 I0 J-0.155
G3 X6.432 Y4.6147 I0.0479 J-0.1474
G3 X6.3977 Y4.5804 I0.0911 J-0.1254
G3 X6.3757 Y4.5372 I0.1254 J-0.0911
G3 X6.3681 Y4.4893 I0.1474 J-0.0479
G1 X6.3681 Y4.4893
G1 X6.3681 Y4.4893
G3 X6.3757 Y4.4414 I0.155 J0
G3 X6.3977 Y4.3982 I0.1474 J0.0479
G3 X6.432 Y4.3639 I0.1254 J0.0911
G3 X6.4752 Y4.3418 I0.0911 J0.1254
G0 Z0.15
G0 X2.0912 Y4.4927
G1 Z-0.12 F30
G3 X2.0828 Y4.5347 I-0.1097 J0 F60
G3 X2.0591 Y4.5702 I-0.1013 J-0.042
G3 X2.0235 Y4.594 I-0.0775 J-0.0775
G3 X1.9815 Y4.6024 I-0.042 J-0.1013
G3 X1.9396 Y4.594 I0 J-0.1097
G3 X1.904 Y4.5702 I0.042 J-0.1013
G3 X1.8802 Y4.5347 I0.0775 J-0.0775
G3 X1.8719 Y4.4927 I0.1013 J-0.042
G3 X1.8802 Y4.4507 I0.1097 J0
G3 X1.904 Y4.4151 I0.1013 J0.042
G3 X1.9396 Y4.3914 I0.0775 J0.0775
G3 X1.9815 Y4.383 I0.042 J0.1013
G3 X2.0235 Y4.3914 I0 J0.1097
G3 X2.0591 Y4.4151 I-0.042 J0.1013
G3 X2.0828 Y4.4507 I-0.0775 J0.0775
G3 X2.0912 Y4.4927 I-0.1013 J0.042
G1 Z-0.24 F30
G3 X2.0828 Y4.5347 I-0.1097 J0 F60
G3 X2.0591 Y4.5702 I-0.1013 J-0.042
G3 X2.0235 Y4.594 I-0.0775 J-0.0775
G3 X1.9815 Y4.6024 I-0.042 J-0.1013
G3 X1.9396 Y4.594 I0 J-0.1097
G3 X1.904 Y4.5702 I0.042 J-0.1013
G3 X1.8802 Y4.5347 I0.0775 J-0.0775
G3 X1.8719 Y4.4927 I0.1013 J-0.042
G3 X1.8802 Y4.4507 I0.1097 J0
G3 X1.904 Y4.4151 I0.1013 J0.042
G3 X1.9396 Y4.3914 I0.0775 J0.0775
G3 X1.9815 Y4.383 I0.042 J0.1013
G3 X2.0235 Y4.3914 I0 J0.1097
G3 X2.0591 Y4.4151 I-0.042 J0.1013
G3 X2.0828 Y4.4507 I-0.0775 J0.0775
G3 X2.0912 Y4.4927 I-0.1013 J0.042
G1 Z-0.36 F30
G3 X2.0828 Y4.5347 I-0.1097 J0 F60
G3 X2.0591 Y4.5702 I-0.1013 J-0.042
G3 X2.0235 Y4.594 I-0.0775 J-0.0775
G3 X1.9815 Y4.6024 I-0.042 J-0.1013
G3 X1.9396 Y4.594 I0 J-0.1097
G3 X1.904 Y4.5702 I0.042 J-0.1013
G3 X1.8802 Y4.5347 I0.0775 J-0.0775
G3 X1.8719 Y4.4927 I0.1013 J-0.042
G3 X1.8802 Y4.4507 I0.1097 J0
G3 X1.904 Y4.4151 I0.1013 J0.042
G3 X1.9396 Y4.3914 I0.0775 J0.0775
G3 X1.9815 Y4.383 I0.042 J0.1013
G3 X2.0235 Y4.3914 I0 J0.1097
G3 X2.0591 Y4.4151 I-0.042 J0.1013
G3 X2.0828 Y4.4507 I-0.0775 J0.0775
G3 X2.0912 Y4.4927 I-0.1013 J0.042
G1 Z-0.48 F30
G3 X2.0828 Y4.5347 I-0.1097 J0 F60
G3 X2.0591 Y4.5702 I-0.1013 J-0.042
G3 X2.0235 Y4.594 I-0.0775 J-0.0775
G3 X1.9815 Y4.6024 I-0.042 J-0.1013
G3 X1.9396 Y4.594 I0 J-0.1097
G3 X1.904 Y4.5702 I0.042 J-0.1013
G3 X1.8802 Y4.5347 I0.0775 J-0.0775
G3 X1.8719 Y4.4927 I0.1013 J-0.042
G3 X1.8802 Y4.4507 I0.1097 J0
G3 X1.904 Y4.4151 I0.1013 J0.042
G3 X1.9396 Y4.3914 I0.0775 J0.0775
G3 X1.9815 Y4.383 I0.042 J0.1013
G3 X2.0235 Y4.3914 I0 J0.1097
G3 X2.0591 Y4.4151 I-0.042 J0.1013
G3 X2.0828 Y4.4507 I-0.0775 J0.0775
G3 X2.0912 Y4.4927 I-0.1013 J0.042
G1 Z-0.55 F30
G3 X2.0828 Y4.5347 I-0.1097 J0 F60
G3 X2.0591 Y4.5702 I-0.1013 J-0.042
G3 X2.0235 Y4.594 I-0.0775 J-0.0775
G3 X1.9815 Y4.6024 I-0.042 J-0.1013
G3 X1.9396 Y4.594 I0 J-0.1097
G3 X1.904 Y4.5702 I0.042 J-0.1013
G3 X1.8802 Y4.5347 I0.0775 J-0.0775
G3 X1.8719 Y4.4927 I0.1013 J-0.042
G3 X1.8802 Y4.4507 I0.1097 J0
G3 X1.904 Y4.4151 I0.1013 J0.042
G3 X1.9396 Y4.3914 I0.0775 J0.0775
G3 X1.9815 Y4.383 I0.042 J0.1013
G3 X2.0235 Y4.3914 I0 J0.1097
G3 X2.0591 Y4.4151 I-0.042 J0.1013
G3 X2.0828 Y4.4507 I-0.0775 J0.0775
G3 X2.0912 Y4.4927 I-0.1013 J0.042

(Outside Cuts)
G0 Z0.15
G0 X3.627 Y0.0072
G1 Z-0.12 F30
G1 X4.1128 Y0.0072 F60
G1 X4.6128 Y0.0072
G1 X5.1907 Y0.0072
G3 X5.3157 Y0.1322 I0 J0.125
G1 X5.3157 Y0.6656
G2 X5.3164 Y0.6687 I0.0083 J0
G2 X5.3182 Y0.6714 I0.0077 J-0.0032
G2 X5.3209 Y0.6733 I0.0059 J-0.0059
G2 X5.3241 Y0.6739 I0.0032 J-0.0077
G2 X5.3273 Y0.6733 I0 J-0.0083
G2 X5.33 Y0.6714 I-0.0032 J-0.0077
G2 X5.3318 Y0.6687 I-0.0059 J-0.0059
G2 X5.3324 Y0.6656 I-0.0077 J-0.0032
G3 X5.4574 Y0.5406 I0.125 J0
G1 X5.6686 Y0.5406
G3 X5.7936 Y0.6656 I0 J0.125
G1 X5.7936 Y1.7322
G3 X5.6686 Y1.8572 I-0.125 J0
G1 X5.4574 Y1.8572
G3 X5.3324 Y1.7322 I0 J-0.125
G2 X5.3318 Y1.729 I-0.0083 J0
G2 X5.33 Y1.7263 I-0.0077 J0.0032
G2 X5.3273 Y1.7245 I-0.0059 J0.0059
G2 X5.3241 Y1.7239 I-0.0032 J0.0077
G2 X5.3209 Y1.7245 I0 J0.0083
G2 X5.3182 Y1.7263 I0.0032 J0.0077
G2 X5.3164 Y1.729 I0.0059 J0.0059
G2 X5.3157 Y1.7322 I0.0077 J0.0032
G1 X5.3157 Y2.2656
G3 X5.1907 Y2.3906 I-0.125 J0
G1 X4.6458 Y2.3906
G1 X4.1458 Y2.3906
G1 X3.627 Y2.3906
G3 X3.502 Y2.2656 I0 J-0.125
G1 X3.502 Y1.9989
G2 X3.5014 Y1.9957 I-0.0083 J0
G2 X3.4996 Y1.993 I-0.0077 J0.0032
G2 X3.4969 Y1.9912 I-0.0059 J0.0059
G2 X3.4937 Y1.9906 I-0.0032 J0.0077
G2 X3.4905 Y1.9912 I0 J0.0083
G2 X3.4878 Y1.993 I0.0032 J0.0077
G2 X3.486 Y1.9957 I0.0059 J0.0059
G2 X3.4853 Y1.9989 I0.0077 J0.0032
G3 X3.3603 Y2.1239 I-0.125 J0
G1 X2.6745 Y2.1239
G3 X2.5495 Y1.9989 I0 J-0.125
G1 X2.5495 Y1.7322
G2 X2.5488 Y1.729 I-0.0083 J0
G2 X2.547 Y1.7263 I-0.0077 J0.0032
G2 X2.5443 Y1.7245 I-0.0059 J0.0059
G2 X2.5411 Y1.7239 I-0.0032 J0.0077
G2 X2.5379 Y1.7245 I0 J0.0083
G2 X2.5352 Y1.7263 I0.0032 J0.0077
G2 X2.5334 Y1.729 I0.0059 J0.0059
G2 X2.5328 Y1.7322 I0.0077 J0.0032
G3 X2.4078 Y1.8572 I-0.125 J0
G1 X2.1966 Y1.8572
G3 X2.0716 Y1.7322 I0 J-0.125
G1 X2.0716 Y0.6656
G3 X2.1966 Y0.5406 I0.125 J0
G1 X2.4078 Y0.5406
G3 X2.5328 Y0.6656 I0 J0.125
G2 X2.5334 Y0.6687 I0.0083 J0
G2 X2.5352 Y0.6714 I0.0077 J-0.0032
G2 X2.5379 Y0.6733 I0.0059 J-0.0059
G2 X2.5411 Y0.6739 I0.0032 J-0.0077
G2 X2.5443 Y0.6733 I0 J-0.0083
G2 X2.547 Y0.6714 I-0.0032 J-0.0077
G2 X2.5488 Y0.6687 I-0.0059 J-0.0059
G2 X2.5495 Y0.6656 I-0.0077 J-0.0032
G1 X2.5495 Y0.3989
G3 X2.6745 Y0.2739 I0.125 J0
G1 X3.3603 Y0.2739
G3 X3.4853 Y0.3989 I0 J0.125
G2 X3.486 Y0.4021 I0.0083 J0
G2 X3.4878 Y0.4048 I0.0077 J-0.0032
G2 X3.4905 Y0.4066 I0.0059 J-0.0059
G2 X3.4937 Y0.4072 I0.0032 J-0.0077
G2 X3.4969 Y0.4066 I0 J-0.0083
G2 X3.4996 Y0.4048 I-0.0032 J-0.0077
G2 X3.5014 Y0.4021 I-0.0059 J-0.0059
G2 X3.502 Y0.3989 I-0.0077 J-0.0032
G1 X3.502 Y0.1322
G3 X3.627 Y0.0072 I0.125 J0
G1 Z-0.24 F30
G1 X4.1128 Y0.0072 F60
G1 X4.6128 Y0.0072
G1 X5.1907 Y0.0072
G3 X5.3157 Y0.1322 I0 J0.125
G1 X5.3157 Y0.6656
G2 X5.3164 Y0.6687 I0.0083 J0
G2 X5.3182 Y0.6714 I0.0077 J-0.0032
G2 X5.3209 Y0.6733 I0.0059 J-0.0059
G2 X5.3241 Y0.6739 I0.0032 J-0.0077
G2 X5.3273 Y0.6733 I0 J-0.0083
G2 X5.33 Y0.6714 I-0.0032 J-0.0077
G2 X5.3318 Y0.6687 I-0.0059 J-0.0059
G2 X5.3324 Y0.6656 I-0.0077 J-0.0032
G3 X5.4574 Y0.5406 I0.125 J0
G1 X5.6686 Y0.5406
G3 X5.7936 Y0.6656 I0 J0.125
G1 X5.7936 Y1.7322
G3 X5.6686 Y1.8572 I-0.125 J0
G1 X5.4574 Y1.8572
G3 X5.3324 Y1.7322 I0 J-0.125
G2 X5.3318 Y1.729 I-0.0083 J0
G2 X5.33 Y1.7263 I-0.0077 J0.0032
G2 X5.3273 Y1.7245 I-0.0059 J0.0059
G2 X5.3241 Y1.7239 I-0.0032 J0.0077
G2 X5.3209 Y1.7245 I0 J0.0083
G2 X5.3182 Y1.7263 I0.0032 J0.0077
G2 X5.3164 Y1.729 I0.0059 J0.0059
G2 X5.3157 Y1.7322 I0.0077 J0.0032
G1 X5.3157 Y2.2656
G3 X5.1907 Y2.3906 I-0.125 J0
G1 X4.6458 Y2.3906
G1 X4.1458 Y2.3906
G1 X3.627 Y2.3906
G3 X3.502 Y2.2656 I0 J-0.125
G1 X3.502 Y1.9989
G2 X3.5014 Y1.9957 I-0.0083 J0
G2 X3.4996 Y1.993 I-0.0077 J0.0032
G2 X3.4969 Y1.9912 I-0.0059 J0.0059
G2 X3.4937 Y1.9906 I-0.0032 J0.0077
G2 X3.4905 Y1.9912 I0 J0.0083
G2 X3.4878 Y1.993 I0.0032 J0.0077
G2 X3.486 Y1.9957 I0.0059 J0.0059
G2 X3.4853 Y1.9989 I0.0077 J0.0032
G3 X3.3603 Y2.1239 I-0.125 J0
G1 X2.6745 Y2.1239
G3 X2.5495 Y1.9989 I0 J-0.125
G1 X2.5495 Y1.7322
G2 X2.5488 Y1.729 I-0.0083 J0
G2 X2.547 Y1.7263 I-0.0077 J0.0032
G2 X2.5443 Y1.7245 I-0.0059 J0.0059
G2 X2.5411 Y1.7239 I-0.0032 J0.0077
G2 X2.5379 Y1.7245 I0 J0.0083
G2 X2.5352 Y1.7263 I0.0032 J0.0077
G2 X2.5334 Y1.729 I0.0059 J0.0059
G2 X2.5328 Y1.7322 I0.0077 J0.0032
G3 X2.4078 Y1.8572 I-0.125 J0
G1 X2.1966 Y1.8572
G3 X2.0716 Y1.7322 I0 J-0.125
G1 X2.0716 Y0.6656
G3 X2.1966 Y0.5406 I0.125 J0
G1 X2.4078 Y0.5406
G3 X2.5328 Y0.6656 I0 J0.125
G2 X2.5334 Y0.6687 I0.0083 J0
G2 X2.5352 Y0.6714 I0.0077 J-0.0032
G2 X2.5379 Y0.6733 I0.0059 J-0.0059
G2 X2.5411 Y0.6739 I0.0032 J-0.0077
G2 X2.5443 Y0.6733 I0 J-0.0083
G2 X2.547 Y0.6714 I-0.0032 J-0.0077
G2 X2.5488 Y0.6687 I-0.0059 J-0.0059
G2 X2.5495 Y0.6656 I-0.0077 J-0.0032
G1 X2.5495 Y0.3989
G3 X2.6745 Y0.2739 I0.125 J0
G1 X3.3603 Y0.2739
G3 X3.4853 Y0.3989 I0 J0.125
G2 X3.486 Y0.4021 I0.0083 J0
G2 X3.4878 Y0.4048 I0.0077 J-0.0032
G2 X3.4905 Y0.4066 I0.0059 J-0.0059
G2 X3.4937 Y0.4072 I0.0032 J-0.0077
G2 X3.4969 Y0.4066 I0 J-0.0083
G2 X3.4996 Y0.4048 I-0.0032 J-0.0077
G2 X3.5014 Y0.4021 I-0.0059 J-0.0059
G2 X3.502 Y0.3989 I-0.0077 J-0.0032
G1 X3.502 Y0.1322
G3 X3.627 Y0.0072 I0.125 J0
G1 Z-0.36 F30
G1 X4.1128 Y0.0072 F60
G1 Z-0.3 F30
G1 X4.6128 Y0.0072 F60
G1 Z-0.36 F30
G1 X5.1907 Y0.0072 F60
G3 X5.3157 Y0.1322 I0 J0.125
G1 X5.3157 Y0.6656
G2 X5.3164 Y0.6687 I0.0083 J0
G2 X5.3182 Y0.6714 I0.0077 J-0.0032
G2 X5.3209 Y0.6733 I0.0059 J-0.0059
G2 X5.3241 Y0.6739 I0.0032 J-0.0077
G2 X5.3273 Y0.6733 I0 J-0.0083
G2 X5.33 Y0.6714 I-0.0032 J-0.0077
G2 X5.3318 Y0.6687 I-0.0059 J-0.0059
G2 X5.3324 Y0.6656 I-0.0077 J-0.0032
G3 X5.4574 Y0.5406 I0.125 J0
G1 X5.6686 Y0.5406
G3 X5.7936 Y0.6656 I0 J0.125
G1 X5.7936 Y1.7322
G3 X5.6686 Y1.8572 I-0.125 J0
G1 X5.4574 Y1.8572
G3 X5.3324 Y1.7322 I0 J-0.125
G2 X5.3318 Y1.729 I-0.0083 J0
G2 X5.33 Y1.7263 I-0.0077 J0.0032
G2 X5.3273 Y1.7245 I-0.0059 J0.0059
G2 X5.3241 Y1.7239 I-0.0032 J0.0077
G2 X5.3209 Y1.7245 I0 J0.0083
G2 X5.3182 Y1.7263 I0.0032 J0.0077
G2 X5.3164 Y1.729 I0.0059 J0.0059
G2 X5.3157 Y1.7322 I0.0077 J0.0032
G1 X5.3157 Y2.2656
G3 X5.1907 Y2.3906 I-0.125 J0
G1 X4.6458 Y2.3906
G1 Z-0.3 F30
G1 X4.1458 Y2.3906 F60
G1 Z-0.36 F30
G1 X3.627 Y2.3906 F60
G3 X3.502 Y2.2656 I0 J-0.125
G1 X3.502 Y1.9989
G2 X3.5014 Y1.9957 I-0.0083 J0
G2 X3.4996 Y1.993 I-0.0077 J0.0032
G2 X3.4969 Y1.9912 I-0.0059 J0.0059
G2 X3.4937 Y1.9906 I-0.0032 J0.0077
G2 X3.4905 Y1.9912 I0 J0.0083
G2 X3.4878 Y1.993 I0.0032 J0.0077
G2 X3.486 Y1.9957 I0.0059 J0.0059
G2 X3.4853 Y1.9989 I0.0077 J0.0032
G3 X3.3603 Y2.1239 I-0.125 J0
G1 X2.6745 Y2.1239
G3 X2.5495 Y1.9989 I0 J-0.125
G1 X2.5495 Y1.7322
G2 X2.5488 Y1.729 I-0.0083 J0
G2 X2.547 Y1.7263 I-0.0077 J0.0032
G2 X2.5443 Y1.7245 I-0.0059 J0.0059
G2 X2.5411 Y1.7239 I-0.0032 J0.0077
G2 X2.5379 Y1.7245 I0 J0.0083
G2 X2.5352 Y1.7263 I0.0032 J0.0077
G2 X2.5334 Y1.729 I0.0059 J0.0059
G2 X2.5328 Y1.7322 I0.0077 J0.0032
G3 X2.4078 Y1.8572 I-0.125 J0
G1 X2.1966 Y1.8572
G3 X2.0716 Y1.7322 I0 J-0.125
G1 X2.0716 Y0.6656
G3 X2.1966 Y0.5406 I0.125 J0
G1 X2.4078 Y0.5406
G3 X2.5328 Y0.6656 I0 J0.125
G2 X2.5334 Y0.6687 I0.0083 J0
G2 X2.5352 Y0.6714 I0.0077 J-0.0032
G2 X2.5379 Y0.6733 I0.0059 J-0.0059
G2 X2.5411 Y0.6739 I0.0032 J-0.0077
G2 X2.5443 Y0.6733 I0 J-0.0083
G2 X2.547 Y0.6714 I-0.0032 J-0.0077
G2 X2.5488 Y0.6687 I-0.0059 J-0.0059
G2 X2.5495 Y0.6656 I-0.0077 J-0.0032
G1 X2.5495 Y0.3989
G3 X2.6745 Y0.2739 I0.125 J0
G1 X3.3603 Y0.2739
G3 X3.4853 Y0.3989 I0 J0.125
G2 X3.486 Y0.4021 I0.0083 J0
G2 X3.4878 Y0.4048 I0.0077 J-0.0032
G2 X3.4905 Y0.4066 I0.0059 J-0.0059
G2 X3.4937 Y0.4072 I0.0032 J-0.0077
G2 X3.4969 Y0.4066 I0 J-0.0083
G2 X3.4996 Y0.4048 I-0.0032 J-0.0077
G2 X3.5014 Y0.4021 I-0.0059 J-0.0059
G2 X3.502 Y0.3989 I-0.0077 J-0.0032
G1 X3.502 Y0.1322
G3 X3.627 Y0.0072 I0.125 J0
G1 Z-0.48 F30
G1 X4.1128 Y0.0072 F60
G1 Z-0.3 F30
G1 X4.6128 Y0.0072 F60
G1 Z-0.48 F30
G1 X5.1907 Y0.0072 F60
G3 X5.3157 Y0.1322 I0 J0.125
G1 X5.3157 Y0.6656
G2 X5.3164 Y0.6687 I0.0083 J0
G2 X5.3182 Y0.6714 I0.0077 J-0.0032
G2 X5.3209 Y0.6733 I0.0059 J-0.0059
G2 X5.3241 Y0.6739 I0.0032 J-0.0077
G2 X5.3273 Y0.6733 I0 J-0.0083
G2 X5.33 Y0.6714 I-0.0032 J-0.0077
G2 X5.3318 Y0.6687 I-0.0059 J-0.0059
G2 X5.3324 Y0.6656 I-0.0077 J-0.0032
G3 X5.4574 Y0.5406 I0.125 J0
G1 X5.6686 Y0.5406
G3 X5.7936 Y0.6656 I0 J0.125
G1 X5.7936 Y1.7322
G3 X5.6686 Y1.8572 I-0.125 J0
G1 X5.4574 Y1.8572
G3 X5.3324 Y1.7322 I0 J-0.125
G2 X5.3318 Y1.729 I-0.0083 J0
G2 X5.33 Y1.7263 I-0.0077 J0.0032
G2 X5.3273 Y1.7245 I-0.0059 J0.0059
G2 X5.3241 Y1.7239 I-0.0032 J0.0077
G2 X5.3209 Y1.7245 I0 J0.0083
G2 X5.3182 Y1.7263 I0.0032 J0.0077
G2 X5.3164 Y1.729 I0.0059 J0.0059
G2 X5.3157 Y1.7322 I0.0077 J0.0032
G1 X5.3157 Y2.2656
G3 X5.1907 Y2.3906 I-0.125 J0
G1 X4.6458 Y2.3906
G1 Z-0.3 F30
G1 X4.1458 Y2.3906 F60
G1 Z-0.48 F30
G1 X3.627 Y2.3906 F60
G3 X3.502 Y2.2656 I0 J-0.125
G1 X3.502 Y1.9989
G2 X3.5014 Y1.9957 I-0.0083 J0
G2 X3.4996 Y1.993 I-0.0077 J0.0032
G2 X3.4969 Y1.9912 I-0.0059 J0.0059
G2 X3.4937 Y1.9906 I-0.0032 J0.0077
G2 X3.4905 Y1.9912 I0 J0.0083
G2 X3.4878 Y1.993 I0.0032 J0.0077
G2 X3.486 Y1.9957 I0.0059 J0.0059
G2 X3.4853 Y1.9989 I0.0077 J0.0032
G3 X3.3603 Y2.1239 I-0.125 J0
G1 X2.6745 Y2.1239
G3 X2.5495 Y1.9989 I0 J-0.125
G1 X2.5495 Y1.7322
G2 X2.5488 Y1.729 I-0.0083 J0
G2 X2.547 Y1.7263 I-0.0077 J0.0032
G2 X2.5443 Y1.7245 I-0.0059 J0.0059
G2 X2.5411 Y1.7239 I-0.0032 J0.0077
G2 X2.5379 Y1.7245 I0 J0.0083
G2 X2.5352 Y1.7263 I0.0032 J0.0077
G2 X2.5334 Y1.729 I0.0059 J0.0059
G2 X2.5328 Y1.7322 I0.0077 J0.0032
G3 X2.4078 Y1.8572 I-0.125 J0
G1 X2.1966 Y1.8572
G3 X2.0716 Y1.7322 I0 J-0.125
G1 X2.0716 Y0.6656
G3 X2.1966 Y0.5406 I0.125 J0
G1 X2.4078 Y0.5406
G3 X2.5328 Y0.6656 I0 J0.125
G2 X2.5334 Y0.6687 I0.0083 J0
G2 X2.5352 Y0.6714 I0.0077 J-0.0032
G2 X2.5379 Y0.6733 I0.0059 J-0.0059
G2 X2.5411 Y0.6739 I0.0032 J-0.0077
G2 X2.5443 Y0.6733 I0 J-0.0083
G2 X2.547 Y0.6714 I-0.0032 J-0.0077
G2 X2.5488 Y0.6687 I-0.0059 J-0.0059
G2 X2.5495 Y0.6656 I-0.0077 J-0.0032
G1 X2.5495 Y0.3989
G3 X2.6745 Y0.2739 I0.125 J0
G1 X3.3603 Y0.2739
G3 X3.4853 Y0.3989 I0 J0.125
G2 X3.486 Y0.4021 I0.0083 J0
G2 X3.4878 Y0.4048 I0.0077 J-0.0032
G2 X3.4905 Y0.4066 I0.0059 J-0.0059
G2 X3.4937 Y0.4072 I0.0032 J-0.0077
G2 X3.4969 Y0.4066 I0 J-0.0083
G2 X3.4996 Y0.4048 I-0.0032 J-0.0077
G2 X3.5014 Y0.4021 I-0.0059 J-0.0059
G2 X3.502 Y0.3989 I-0.0077 J-0.0032
G1 X3.502 Y0.1322
G3 X3.627 Y0.0072 I0.125 J0
G1 Z-0.55 F30
G1 X4.1128 Y0.0072 F60
G1 Z-0.3 F30
G1 X4.6128 Y0.0072 F60
G1 Z-0.55 F30
G1 X5.1907 Y0.0072 F60
G3 X5.3157 Y0.1322 I0 J0.125
G1 X5.3157 Y0.6656
G2 X5.3164 Y0.6687 I0.0083 J0
G2 X5.3182 Y0.6714 I0.0077 J-0.0032
G2 X5.3209 Y0.6733 I0.0059 J-0.0059
G2 X5.3241 Y0.6739 I0.0032 J-0.0077
G2 X5.3273 Y0.6733 I0 J-0.0083
G2 X5.33 Y0.6714 I-0.0032 J-0.0077
G2 X5.3318 Y0.6687 I-0.0059 J-0.0059
G2 X5.3324 Y0.6656 I-0.0077 J-0.0032
G3 X5.4574 Y0.5406 I0.125 J0
G1 X5.6686 Y0.5406
G3 X5.7936 Y0.6656 I0 J0.125
G1 X5.7936 Y1.7322
G3 X5.6686 Y1.8572 I-0.125 J0
G1 X5.4574 Y1.8572
G3 X5.3324 Y1.7322 I0 J-0.125
G2 X5.3318 Y1.729 I-0.0083 J0
G2 X5.33 Y1.7263 I-0.0077 J0.0032
G2 X5.3273 Y1.7245 I-0.0059 J0.0059
G2 X5.3241 Y1.7239 I-0.0032 J0.0077
G2 X5.3209 Y1.7245 I0 J0.0083
G2 X5.3182 Y1.7263 I0.0032 J0.0077
G2 X5.3164 Y1.729 I0.0059 J0.0059
G2 X5.3157 Y1.7322 I0.0077 J0.0032
G1 X5.3157 Y2.2656
G3 X5.1907 Y2.3906 I-0.125 J0
G1 X4.6458 Y2.3906
G1 Z-0.3 F30
G1 X4.1458 Y2.3906 F60
G1 Z-0.55 F30
G1 X3.627 Y2.3906 F60
G3 X3.502 Y2.2656 I0 J-0.125
G1 X3.502 Y1.9989
G2 X3.5014 Y1.9957 I-0.0083 J0
G2 X3.4996 Y1.993 I-0.0077 J0.0032
G2 X3.4969 Y1.9912 I-0.0059 J0.0059
G2 X3.4937 Y1.9906 I-0.0032 J0.0077
G2 X3.4905 Y1.9912 I0 J0.0083
G2 X3.4878 Y1.993 I0.0032 J0.0077
G2 X3.486 Y1.9957 I0.0059 J0.0059
G2 X3.4853 Y1.9989 I0.0077 J0.0032
G3 X3.3603 Y2.1239 I-0.125 J0
G1 X2.6745 Y2.1239
G3 X2.5495 Y1.9989 I0 J-0.125
G1 X2.5495 Y1.7322
G2 X2.5488 Y1.729 I-0.0083 J0
G2 X2.547 Y1.7263 I-0.0077 J0.0032
G2 X2.5443 Y1.7245 I-0.0059 J0.0059
G2 X2.5411 Y1.7239 I-0.0032 J0.0077
G2 X2.5379 Y1.7245 I0 J0.0083
G2 X2.5352 Y1.7263 I0.0032 J0.0077
G2 X2.5334 Y1.729 I0.0059 J0.0059
G2 X2.5328 Y1.7322 I0.0077 J0.0032
G3 X2.4078 Y1.8572 I-0.125 J0
G1 X2.1966 Y1.8572
G3 X2.0716 Y1.7322 I0 J-0.125
G1 X2.0716 Y0.6656
G3 X2.1966 Y0.5406 I0.125 J0
G1 X2.4078 Y0.5406
G3 X2.5328 Y0.6656 I0 J0.125
G2 X2.5334 Y0.6687 I0.0083 J0
G2 X2.5352 Y0.6714 I0.0077 J-0.0032
G2 X2.5379 Y0.6733 I0.0059 J-0.0059
G2 X2.5411 Y0.6739 I0.0032 J-0.0077
G2 X2.5443 Y0.6733 I0 J-0.0083
G2 X2.547 Y0.6714 I-0.0032 J-0.0077
G2 X2.5488 Y0.6687 I-0.0059 J-0.0059
G2 X2.5495 Y0.6656 I-0.0077 J-0.0032
G1 X2.5495 Y0.3989
G3 X2.6745 Y0.2739 I0.125 J0
G1 X3.3603 Y0.2739
G3 X3.4853 Y0.3989 I0 J0.125
G2 X3.486 Y0.4021 I0.0083 J0
G2 X3.4878 Y0.4048 I0.0077 J-0.0032
G2 X3.4905 Y0.4066 I0.0059 J-0.0059
G2 X3.4937 Y0.4072 I0.0032 J-0.0077
G2 X3.4969 Y0.4066 I0 J-0.0083
G2 X3.4996 Y0.4048 I-0.0032 J-0.0077
G2 X3.5014 Y0.4021 I-0.0059 J-0.0059
G2 X3.502 Y0.3989 I-0.0077 J-0.0032
G1 X3.502 Y0.1322
G3 X3.627 Y0.0072 I0.125 J0
G0 Z0.15
G0 X9.5768 Y2.3634
G1 Z-0.12 F30
G1 X9.0393 Y2.3634 F60
G1 X8.5393 Y2.3634
G1 X8.013 Y2.3634
G3 X7.888 Y2.2384 I0 J-0.125
G1 X7.888 Y1.705
G2 X7.8874 Y1.7018 I-0.0083 J0
G2 X7.8856 Y1.6991 I-0.0077 J0.0032
G2 X7.8829 Y1.6973 I-0.0059 J0.0059
G2 X7.8797 Y1.6967 I-0.0032 J0.0077
G2 X7.8765 Y1.6973 I0 J0.0083
G2 X7.8738 Y1.6991 I0.0032 J0.0077
G2 X7.872 Y1.7018 I0.0059 J0.0059
G2 X7.8714 Y1.705 I0.0077 J0.0032
G3 X7.7464 Y1.83 I-0.125 J0
G1 X7.5352 Y1.83
G3 X7.4102 Y1.705 I0 J-0.125
G1 X7.4102 Y0.6384
G3 X7.5352 Y0.5134 I0.125 J0
G1 X7.7464 Y0.5134
G3 X7.8714 Y0.6384 I0 J0.125
G2 X7.872 Y0.6415 I0.0083 J0
G2 X7.8738 Y0.6442 I0.0077 J-0.0032
G2 X7.8765 Y0.6461 I0.0059 J-0.0059
G2 X7.8797 Y0.6467 I0.0032 J-0.0077
G2 X7.8829 Y0.6461 I0 J-0.0083
G2 X7.8856 Y0.6442 I-0.0032 J-0.0077
G2 X7.8874 Y0.6415 I-0.0059 J-0.0059
G2 X7.888 Y0.6384 I-0.0077 J-0.0032
G1 X7.888 Y0.105
G3 X8.013 Y-0.02 I0.125 J0
G1 X8.5709 Y-0.02
G1 X9.0709 Y-0.02
G1 X9.5768 Y-0.02
G3 X9.7018 Y0.105 I0 J0.125
G1 X9.7018 Y0.3717
G2 X9.7024 Y0.3749 I0.0083 J0
G2 X9.7042 Y0.3776 I0.0077 J-0.0032
G2 X9.7069 Y0.3794 I0.0059 J-0.0059
G2 X9.7101 Y0.38 I0.0032 J-0.0077
G2 X9.7133 Y0.3794 I0 J-0.0083
G2 X9.716 Y0.3776 I-0.0032 J-0.0077
G2 X9.7178 Y0.3749 I-0.0059 J-0.0059
G2 X9.7184 Y0.3717 I-0.0077 J-0.0032
G3 X9.8434 Y0.2467 I0.125 J0
G1 X10.5293 Y0.2467
G3 X10.6543 Y0.3717 I0 J0.125
G1 X10.6543 Y0.6384
G2 X10.6549 Y0.6415 I0.0083 J0
G2 X10.6567 Y0.6442 I0.0077 J-0.0032
G2 X10.6594 Y0.6461 I0.0059 J-0.0059
G2 X10.6626 Y0.6467 I0.0032 J-0.0077
G2 X10.6658 Y0.6461 I0 J-0.0083
G2 X10.6685 Y0.6442 I-0.0032 J-0.0077
G2 X10.6703 Y0.6415 I-0.0059 J-0.0059
G2 X10.671 Y0.6384 I-0.0077 J-0.0032
G3 X10.796 Y0.5134 I0.125 J0
G1 X11.0072 Y0.5134
G3 X11.1322 Y0.6384 I0 J0.125
G1 X11.1322 Y1.705
G3 X11.0072 Y1.83 I-0.125 J0
G1 X10.796 Y1.83
G3 X10.671 Y1.705 I0 J-0.125
G2 X10.6703 Y1.7018 I-0.0083 J0
G2 X10.6685 Y1.6991 I-0.0077 J0.0032
G2 X10.6658 Y1.6973 I-0.0059 J0.0059
G2 X10.6626 Y1.6967 I-0.0032 J0.0077
G2 X10.6594 Y1.6973 I0 J0.0083
G2 X10.6567 Y1.6991 I0.0032 J0.0077
G2 X10.6549 Y1.7018 I0.0059 J0.0059
G2 X10.6543 Y1.705 I0.0077 J0.0032
G1 X10.6543 Y1.9717
G3 X10.5293 Y2.0967 I-0.125 J0
G1 X9.8434 Y2.0967
G3 X9.7184 Y1.9717 I0 J-0.125
G2 X9.7178 Y1.9685 I-0.0083 J0
G2 X9.716 Y1.9658 I-0.0077 J0.0032
G2 X9.7133 Y1.964 I-0.0059 J0.0059
G2 X9.7101 Y1.9634 I-0.0032 J0.0077
G2 X9.7069 Y1.964 I0 J0.0083
G2 X9.7042 Y1.9658 I0.0032 J0.0077
G2 X9.7024 Y1.9685 I0.0059 J0.0059
G2 X9.7018 Y1.9717 I0.0077 J0.0032
G1 X9.7018 Y2.2384
G3 X9.5768 Y2.3634 I-0.125 J0
G1 Z-0.24 F30
G1 X9.0393 Y2.3634 F60
G1 X8.5393 Y2.3634
G1 X8.013 Y2.3634
G3 X7.888 Y2.2384 I0 J-0.125
G1 X7.888 Y1.705
G2 X7.8874 Y1.7018 I-0.0083 J0
G2 X7.8856 Y1.6991 I-0.0077 J0.0032
G2 X7.8829 Y1.6973 I-0.0059 J0.0059
G2 X7.8797 Y1.6967 I-0.0032 J0.0077
G2 X7.8765 Y1.6973 I0 J0.0083
G2 X7.8738 Y1.6991 I0.0032 J0.0077
G2 X7.872 Y1.7018 I0.0059 J0.0059
G2 X7.8714 Y1.705 I0.0077 J0.0032
G3 X7.7464 Y1.83 I-0.125 J0
G1 X7.5352 Y1.83
G3 X7.4102 Y1.705 I0 J-0.125
G1 X7.4102 Y0.6384
G3 X7.5352 Y0.5134 I0.125 J0
G1 X7.7464 Y0.5134
G3 X7.8714 Y0.6384 I0 J0.125
G2 X7.872 Y0.6415 I0.0083 J0
G2 X7.8738 Y0.6442 I0.0077 J-0.0032
G2 X7.8765 Y0.6461 I0.0059 J-0.0059
G2 X7.8797 Y0.6467 I0.0032 J-0.0077
G2 X7.8829 Y0.6461 I0 J-0.0083
G2 X7.8856 Y0.6442 I-0.0032 J-0.0077
G2 X7.8874 Y0.6415 I-0.0059 J-0.0059
G2 X7.888 Y0.6384 I-0.0077 J-0.0032
G1 X7.888 Y0.105
G3 X8.013 Y-0.02 I0.125 J0
G1 X8.5709 Y-0.02
G1 X9.0709 Y-0.02
G1 X9.5768 Y-0.02
G3 X9.7018 Y0.105 I0 J0.125
G1 X9.7018 Y0.3717
G2 X9.7024 Y0.3749 I0.0083 J0
G2 X9.7042 Y0.3776 I0.0077 J-0.0032
G2 X9.7069 Y0.3794 I0.0059 J-0.0059
G2 X9.7101 Y0.38 I0.0032 J-0.0077
G2 X9.7133 Y0.3794 I0 J-0.0083
G2 X9.716 Y0.3776 I-0.0032 J-0.0077
G2 X9.7178 Y0.3749 I-0.0059 J-0.0059
G2 X9.7184 Y0.3717 I-0.0077 J-0.0032
G3 X9.8434 Y0.2467 I0.125 J0
G1 X10.5293 Y0.2467
G3 X10.6543 Y0.3717 I0 J0.125
G1 X10.6543 Y0.6384
G2 X10.6549 Y0.6415 I0.0083 J0
G2 X10.6567 Y0.6442 I0.0077 J-0.0032
G2 X10.6594 Y0.6461 I0.0059 J-0.0059
G2 X10.6626 Y0.6467 I0.0032 J-0.0077
G2 X10.6658 Y0.6461 I0 J-0.0083
G2 X10.6685 Y0.6442 I-0.0032 J-0.0077
G2 X10.6703 Y0.6415 I-0.0059 J-0.0059
G2 X10.671 Y0.6384 I-0.0077 J-0.0032
G3 X10.796 Y0.5134 I0.125 J0
G1 X11.0072 Y0.5134
G3 X11.1322 Y0.6384 I0 J0.125
G1 X11.1322 Y1.705
G3 X11.0072 Y1.83 I-0.125 J0
G1 X10.796 Y1.83
G3 X10.671 Y1.705 I0 J-0.125
G2 X10.6703 Y1.7018 I-0.0083 J0
G2 X10.6685 Y1.6991 I-0.0077 J0.0032
G2 X10.6658 Y1.6973 I-0.0059 J0.0059
G2 X10.6626 Y1.6967 I-0.0032 J0.0077
G2 X10.6594 Y1.6973 I0 J0.0083
G2 X10.6567 Y1.6991 I0.0032 J0.0077
G2 X10.6549 Y1.7018 I0.0059 J0.0059
G2 X10.6543 Y1.705 I0.0077 J0.0032
G1 X10.6543 Y1.9717
G3 X10.5293 Y2.0967 I-0.125 J0
G1 X9.8434 Y2.0967
G3 X9.7184 Y1.9717 I0 J-0.125
G2 X9.7178 Y1.9685 I-0.0083 J0
G2 X9.716 Y1.9658 I-0.0077 J0.0032
G2 X9.7133 Y1.964 I-0.0059 J0.0059
G2 X9.7101 Y1.9634 I-0.0032 J0.0077
G2 X9.7069 Y1.964 I0 J0.0083
G2 X9.7042 Y1.9658 I0.0032 J0.0077
G2 X9.7024 Y1.9685 I0.0059 J0.0059
G2 X9.7018 Y1.9717 I0.0077 J0.0032
G1 X9.7018 Y2.2384
G3 X9.5768 Y2.3634 I-0.125 J0
G1 Z-0.36 F30
G1 X9.0393 Y2.3634 F60
G1 Z-0.3 F30
G1 X8.5393 Y2.3634 F60
G1 Z-0.36 F30
G1 X8.013 Y2.3634 F60
G3 X7.888 Y2.2384 I0 J-0.125
G1 X7.888 Y1.705
G2 X7.8874 Y1.7018 I-0.0083 J0
G2 X7.8856 Y1.6991 I-0.0077 J0.0032
G2 X7.8829 Y1.6973 I-0.0059 J0.0059
G2 X7.8797 Y1.6967 I-0.0032 J0.0077
G2 X7.8765 Y1.6973 I0 J0.0083
G2 X7.8738 Y1.6991 I0.0032 J0.0077
G2 X7.872 Y1.7018 I0.0059 J0.0059
G2 X7.8714 Y1.705 I0.0077 J0.0032
G3 X7.7464 Y1.83 I-0.125 J0
G1 X7.5352 Y1.83
G3 X7.4102 Y1.705 I0 J-0.125
G1 X7.4102 Y0.6384
G3 X7.5352 Y0.5134 I0.125 J0
G1 X7.7464 Y0.5134
G3 X7.8714 Y0.6384 I0 J0.125
G2 X7.872 Y0.6415 I0.0083 J0
G2 X7.8738 Y0.6442 I0.0077 J-0.0032
G2 X7.8765 Y0.6461 I0.0059 J-0.0059
G2 X7.8797 Y0.6467 I0.0032 J-0.0077
G2 X7.8829 Y0.6461 I0 J-0.0083
G2 X7.8856 Y0.6442 I-0.0032 J-0.0077
G2 X7.8874 Y0.6415 I-0.0059 J-0.0059
G2 X7.888 Y0.6384 I-0.0077 J-0.0032
G1 X7.888 Y0.105
G3 X8.013 Y-0.02 I0.125 J0
G1 X8.5709 Y-0.02
G1 Z-0.3 F30
G1 X9.0709 Y-0.02 F60
G1 Z-0.36 F30
G1 X9.5768 Y-0.02 F60
G3 X9.7018 Y0.105 I0 J0.125
G1 X9.7018 Y0.3717
G2 X9.7024 Y0.3749 I0.0083 J0
G2 X9.7042 Y0.3776 I0.0077 J-0.0032
G2 X9.7069 Y0.3794 I0.0059 J-0.0059
G2 X9.7101 Y0.38 I0.0032 J-0.0077
G2 X9.7133 Y0.3794 I0 J-0.0083
G2 X9.716 Y0.3776 I-0.0032 J-0.0077
G2 X9.7178 Y0.3749 I-0.0059 J-0.0059
G2 X9.7184 Y0.3717 I-0.0077 J-0.0032
G3 X9.8434 Y0.2467 I0.125 J0
G1 X10.5293 Y0.2467
G3 X10.6543 Y0.3717 I0 J0.125
G1 X10.6543 Y0.6384
G2 X10.6549 Y0.6415 I0.0083 J0
G2 X10.6567 Y0.6442 I0.0077 J-0.0032
G2 X10.6594 Y0.6461 I0.0059 J-0.0059
G2 X10.6626 Y0.6467 I0.0032 J-0.0077
G2 X10.6658 Y0.6461 I0 J-0.0083
G2 X10.6685 Y0.6442 I-0.0032 J-0.0077
G2 X10.6703 Y0.6415 I-0.0059 J-0.0059
G2 X10.671 Y0.6384 I-0.0077 J-0.0032
G3 X10.796 Y0.5134 I0.125 J0
G1 X11.0072 Y0.5134
G3 X11.1322 Y0.6384 I0 J0.125
G1 X11.1322 Y1.705
G3 X11.0072 Y1.83 I-0.125 J0
G1 X10.796 Y1.83
G3 X10.671 Y1.705 I0 J-0.125
G2 X10.6703 Y1.7018 I-0.0083 J0
G2 X10.6685 Y1.6991 I-0.0077 J0.0032
G2 X10.6658 Y1.6973 I-0.0059 J0.0059
G2 X10.6626 Y1.6967 I-0.0032 J0.0077
G2 X10.6594 Y1.6973 I0 J0.0083
G2 X10.6567 Y1.6991 I0.0032 J0.0077
G2 X10.6549 Y1.7018 I0.0059 J0.0059
G2 X10.6543 Y1.705 I0.0077 J0.0032
G1 X10.6543 Y1.9717
G3 X10.5293 Y2.0967 I-0.125 J0
G1 X9.8434 Y2.0967
G3 X9.7184 Y1.9717 I0 J-0.125
G2 X9.7178 Y1.9685 I-0.0083 J0
G2 X9.716 Y1.9658 I-0.0077 J0.0032
G2 X9.7133 Y1.964 I-0.0059 J0.0059
G2 X9.7101 Y1.9634 I-0.0032 J0.0077
G2 X9.7069 Y1.964 I0 J0.0083
G2 X9.7042 Y1.9658 I0.0032 J0.0077
G2 X9.7024 Y1.9685 I0.0059 J0.0059
G2 X9.7018 Y1.9717 I0.0077 J0.0032
G1 X9.7018 Y2.2384
G3 X9.5768 Y2.3634 I-0.125 J0
G1 Z-0.48 F30
G1 X9.0393 Y2.3634 F60
G1 Z-0.3 F30
G1 X8.5393 Y2.3634 F60
G1 Z-0.48 F30
G1 X8.013 Y2.3634 F60
G3 X7.888 Y2.2384 I0 J-0.125
G1 X7.888 Y1.705
G2 X7.8874 Y1.7018 I-0.0083 J0
G2 X7.8856 Y1.6991 I-0.0077 J0.0032
G2 X7.8829 Y1.6973 I-0.0059 J0.0059
G2 X7.8797 Y1.6967 I-0.0032 J0.0077
G2 X7.8765 Y1.6973 I0 J0.0083
G2 X7.8738 Y1.6991 I0.0032 J0.0077
G2 X7.872 Y1.7018 I0.0059 J0.0059
G2 X7.8714 Y1.705 I0.0077 J0.0032
G3 X7.7464 Y1.83 I-0.125 J0
G1 X7.5352 Y1.83
G3 X7.4102 Y1.705 I0 J-0.125
G1 X7.4102 Y0.6384
G3 X7.5352 Y0.5134 I0.125 J0
G1 X7.7464 Y0.5134
G3 X7.8714 Y0.6384 I0 J0.125
G2 X7.872 Y0.6415 I0.0083 J0
G2 X7.8738 Y0.6442 I0.0077 J-0.0032
G2 X7.8765 Y0.6461 I0.0059 J-0.0059
G2 X7.8797 Y0.6467 I0.0032 J-0.0077
G2 X7.8829 Y0.6461 I0 J-0.0083
G2 X7.8856 Y0.6442 I-0.0032 J-0.0077
G2 X7.8874 Y0.6415 I-0.0059 J-0.0059
G2 X7.888 Y0.6384 I-0.0077 J-0.0032
G1 X7.888 Y0.105
G3 X8.013 Y-0.02 I0.125 J0
G1 X8.5709 Y-0.02
G1 Z-0.3 F30
G1 X9.0709 Y-0.02 F60
G1 Z-0.48 F30
G1 X9.5768 Y-0.02 F60
G3 X9.7018 Y0.105 I0 J0.125
G1 X9.7018 Y0.3717
G2 X9.7024 Y0.3749 I0.0083 J0
G2 X9.7042 Y0.3776 I0.0077 J-0.0032
G2 X9.7069 Y0.3794 I0.0059 J-0.0059
G2 X9.7101 Y0.38 I0.0032 J-0.0077
G2 X9.7133 Y0.3794 I0 J-0.0083
G2 X9.716 Y0.3776 I-0.0032 J-0.0077
G2 X9.7178 Y0.3749 I-0.0059 J-0.0059
G2 X9.7184 Y0.3717 I-0.0077 J-0.0032
G3 X9.8434 Y0.2467 I0.125 J0
G1 X10.5293 Y0.2467
G3 X10.6543 Y0.3717 I0 J0.125
G1 X10.6543 Y0.6384
G2 X10.6549 Y0.6415 I0.0083 J0
G2 X10.6567 Y0.6442 I0.0077 J-0.0032
G2 X10.6594 Y0.6461 I0.0059 J-0.0059
G2 X10.6626 Y0.6467 I0.0032 J-0.0077
G2 X10.6658 Y0.6461 I0 J-0.0083
G2 X10.6685 Y0.6442 I-0.0032 J-0.0077
G2 X10.6703 Y0.6415 I-0.0059 J-0.0059
G2 X10.671 Y0.6384 I-0.0077 J-0.0032
G3 X10.796 Y0.5134 I0.125 J0
G1 X11.0072 Y0.5134
G3 X11.1322 Y0.6384 I0 J0.125
G1 X11.1322 Y1.705
G3 X11.0072 Y1.83 I-0.125 J0
G1 X10.796 Y1.83
G3 X10.671 Y1.705 I0 J-0.125
G2 X10.6703 Y1.7018 I-0.0083 J0
G2 X10.6685 Y1.6991 I-0.0077 J0.0032
G2 X10.6658 Y1.6973 I-0.0059 J0.0059
G2 X10.6626 Y1.6967 I-0.0032 J0.0077
G2 X10.6594 Y1.6973 I0 J0.0083
G2 X10.6567 Y1.6991 I0.0032 J0.0077
G2 X10.6549 Y1.7018 I0.0059 J0.0059
G2 X10.6543 Y1.705 I0.0077 J0.0032
G1 X10.6543 Y1.9717
G3 X10.5293 Y2.0967 I-0.125 J0
G1 X9.8434 Y2.0967
G3 X9.7184 Y1.9717 I0 J-0.125
G2 X9.7178 Y1.9685 I-0.0083 J0
G2 X9.716 Y1.9658 I-0.0077 J0.0032
G2 X9.7133 Y1.964 I-0.0059 J0.0059
G2 X9.7101 Y1.9634 I-0.0032 J0.0077
G2 X9.7069 Y1.964 I0 J0.0083
G2 X9.7042 Y1.9658 I0.0032 J0.0077
G2 X9.7024 Y1.9685 I0.0059 J0.0059
G2 X9.7018 Y1.9717 I0.0077 J0.0032
G1 X9.7018 Y2.2384
G3 X9.5768 Y2.3634 I-0.125 J0
G1 Z-0.55 F30
G1 X9.0393 Y2.3634 F60
G1 Z-0.3 F30
G1 X8.5393 Y2.3634 F60
G1 Z-0.55 F30
G1 X8.013 Y2.3634 F60
G3 X7.888 Y2.2384 I0 J-0.125
G1 X7.888 Y1.705
G2 X7.8874 Y1.7018 I-0.0083 J0
G2 X7.8856 Y1.6991 I-0.0077 J0.0032
G2 X7.8829 Y1.6973 I-0.0059 J0.0059
G2 X7.8797 Y1.6967 I-0.0032 J0.0077
G2 X7.8765 Y1.6973 I0 J0.0083
G2 X7.8738 Y1.6991 I0.0032 J0.0077
G2 X7.872 Y1.7018 I0.0059 J0.0059
G2 X7.8714 Y1.705 I0.0077 J0.0032
G3 X7.7464 Y1.83 I-0.125 J0
G1 X7.5352 Y1.83
G3 X7.4102 Y1.705 I0 J-0.125
G1 X7.4102 Y0.6384
G3 X7.5352 Y0.5134 I0.125 J0
G1 X7.7464 Y0.5134
G3 X7.8714 Y0.6384 I0 J0.125
G2 X7.872 Y0.6415 I0.0083 J0
G2 X7.8738 Y0.6442 I0.0077 J-0.0032
G2 X7.8765 Y0.6461 I0.0059 J-0.0059
G2 X7.8797 Y0.6467 I0.0032 J-0.0077
G2 X7.8829 Y0.6461 I0 J-0.0083
G2 X7.8856 Y0.6442 I-0.0032 J-0.0077
G2 X7.8874 Y0.6415 I-0.0059 J-0.0059
G2 X7.888 Y0.6384 I-0.0077 J-0.0032
G1 X7.888 Y0.105
G3 X8.013 Y-0.02 I0.125 J0
G1 X8.5709 Y-0.02
G1 Z-0.3 F30
G1 X9.0709 Y-0.02 F60
G1 Z-0.55 F30
G1 X9.5768 Y-0.02 F60
G3 X9.7018 Y0.105 I0 J0.125
G1 X9.7018 Y0.3717
G2 X9.7024 Y0.3749 I0.0083 J0
G2 X9.7042 Y0.3776 I0.0077 J-0.0032
G2 X9.7069 Y0.3794 I0.0059 J-0.0059
G2 X9.7101 Y0.38 I0.0032 J-0.0077
G2 X9.7133 Y0.3794 I0 J-0.0083
G2 X9.716 Y0.3776 I-0.0032 J-0.0077
G2 X9.7178 Y0.3749 I-0.0059 J-0.0059
G2 X9.7184 Y0.3717 I-0.0077 J-0.0032
G3 X9.8434 Y0.2467 I0.125 J0
G1 X10.5293 Y0.2467
G3 X10.6543 Y0.3717 I0 J0.125
G1 X10.6543 Y0.6384
G2 X10.6549 Y0.6415 I0.0083 J0
G2 X10.6567 Y0.6442 I0.0077 J-0.0032
G2 X10.6594 Y0.6461 I0.0059 J-0.0059
G2 X10.6626 Y0.6467 I0.0032 J-0.0077
G2 X10.6658 Y0.6461 I0 J-0.0083
G2 X10.6685 Y0.6442 I-0.0032 J-0.0077
G2 X10.6703 Y0.6415 I-0.0059 J-0.0059
G2 X10.671 Y0.6384 I-0.0077 J-0.0032
G3 X10.796 Y0.5134 I0.125 J0
G1 X11.0072 Y0.5134
G3 X11.1322 Y0.6384 I0 J0.125
G1 X11.1322 Y1.705
G3 X11.0072 Y1.83 I-0.125 J0
G1 X10.796 Y1.83
G3 X10.671 Y1.705 I0 J-0.125
G2 X10.6703 Y1.7018 I-0.0083 J0
G2 X10.6685 Y1.6991 I-0.0077 J0.0032
G2 X10.6658 Y1.6973 I-0.0059 J0.0059
G2 X10.6626 Y1.6967 I-0.0032 J0.0077
G2 X10.6594 Y1.6973 I0 J0.0083
G2 X10.6567 Y1.6991 I0.0032 J0.0077
G2 X10.6549 Y1.7018 I0.0059 J0.0059
G2 X10.6543 Y1.705 I0.0077 J0.0032
G1 X10.6543 Y1.9717
G3 X10.5293 Y2.0967 I-0.125 J0
G1 X9.8434 Y2.0967
G3 X9.7184 Y1.9717 I0 J-0.125
G2 X9.7178 Y1.9685 I-0.0083 J0
G2 X9.716 Y1.9658 I-0.0077 J0.0032
G2 X9.7133 Y1.964 I-0.0059 J0.0059
G2 X9.7101 Y1.9634 I-0.0032 J0.0077
G2 X9.7069 Y1.964 I0 J0.0083
G2 X9.7042 Y1.9658 I0.0032 J0.0077
G2 X9.7024 Y1.9685 I0.0059 J0.0059
G2 X9.7018 Y1.9717 I0.0077 J0.0032
G1 X9.7018 Y2.2384
G3 X9.5768 Y2.3634 I-0.125 J0
G0 Z0.15
G0 X3.42 Y5.9312
G1 Z-0.12 F30
G3 X3.1015 Y6.1947 I-1.5532 J-1.5532 F60
G3 X3.0029 Y6.2573 I-1.0626 J-1.5635
G3 X2.7623 Y6.3777 I-0.964 J-1.6262
G3 X2.5442 Y6.4528 I-0.7234 J-1.7465
G3 X2.3931 Y6.4881 I-0.5054 J-1.8216
G3 X1.9815 Y6.527 I-0.4116 J-2.1577
G3 X1.57 Y6.4881 I0 J-2.1966
G3 X1.2007 Y6.3777 I0.3542 J-1.857
G3 X0.8616 Y6.1947 I0.7234 J-1.7465
G3 X0.543 Y5.9312 I1.2347 J-1.8167
G3 X0.2795 Y5.6127 I1.5532 J-1.5532
G3 X0.0965 Y5.2735 I1.5635 J-1.0626
G3 X-0.0139 Y4.9042 I1.7465 J-0.7234
G3 X-0.0528 Y4.4927 I2.1577 J-0.4116
G3 X-0.0139 Y4.0811 I2.1966 J0
G3 X0.0965 Y3.7119 I1.857 J0.3542
G3 X0.2795 Y3.3727 I1.7465 J0.7234
G3 X0.543 Y3.0542 I1.8167 J1.2347
G3 X0.8616 Y2.7907 I1.5532 J1.5532
G3 X1.0046 Y2.7025 I1.0626 J1.5635
G3 X1.2007 Y2.6077 I0.9196 J1.6517
G3 X1.4683 Y2.5196 I0.7234 J1.7465
G3 X1.57 Y2.4973 I0.4558 J1.8347
G3 X1.9815 Y2.4584 I0.4116 J2.1577
G3 X2.3931 Y2.4973 I0 J2.1966
G3 X2.7623 Y2.6077 I-0.3542 J1.857
G3 X3.1015 Y2.7907 I-0.7234 J1.7465
G3 X3.42 Y3.0542 I-1.2347 J1.8167
G3 X3.6835 Y3.3727 I-1.5532 J1.5532
G3 X3.8665 Y3.7119 I-1.5635 J1.0626
G3 X3.977 Y4.0811 I-1.7465 J0.7234
G3 X4.0159 Y4.4927 I-2.1577 J0.4116
G3 X3.977 Y4.9042 I-2.1966 J0
G3 X3.8665 Y5.2735 I-1.857 J-0.3542
G3 X3.6835 Y5.6127 I-1.7465 J-0.7234
G3 X3.42 Y5.9312 I-1.8167 J-1.2347
G1 Z-0.24 F30
G3 X3.1015 Y6.1947 I-1.5532 J-1.5532 F60
G3 X3.0029 Y6.2573 I-1.0626 J-1.5635
G3 X2.7623 Y6.3777 I-0.964 J-1.6262
G3 X2.5442 Y6.4528 I-0.7234 J-1.7465
G3 X2.3931 Y6.4881 I-0.5054 J-1.8216
G3 X1.9815 Y6.527 I-0.4116 J-2.1577
G3 X1.57 Y6.4881 I0 J-2.1966
G3 X1.2007 Y6.3777 I0.3542 J-1.857
G3 X0.8616 Y6.1947 I0.7234 J-1.7465
G3 X0.543 Y5.9312 I1.2347 J-1.8167
G3 X0.2795 Y5.6127 I1.5532 J-1.5532
G3 X0.0965 Y5.2735 I1.5635 J-1.0626
G3 X-0.0139 Y4.9042 I1.7465 J-0.7234
G3 X-0.0528 Y4.4927 I2.1577 J-0.4116
G3 X-0.0139 Y4.0811 I2.1966 J0
G3 X0.0965 Y3.7119 I1.857 J0.3542
G3 X0.2795 Y3.3727 I1.7465 J0.7234
G3 X0.543 Y3.0542 I1.8167 J1.2347
G3 X0.8616 Y2.7907 I1.5532 J1.5532
G3 X1.0046 Y2.7025 I1.0626 J1.5635
G3 X1.2007 Y2.6077 I0.9196 J1.6517
G3 X1.4683 Y2.5196 I0.7234 J1.7465
G3 X1.57 Y2.4973 I0.4558 J1.8347
G3 X1.9815 Y2.4584 I0.4116 J2.1577
G3 X2.3931 Y2.4973 I0 J2.1966
G3 X2.7623 Y2.6077 I-0.3542 J1.857
G3 X3.1015 Y2.7907 I-0.7234 J1.7465
G3 X3.42 Y3.0542 I-1.2347 J1.8167
G3 X3.6835 Y3.3727 I-1.5532 J1.5532
G3 X3.8665 Y3.7119 I-1.5635 J1.0626
G3 X3.977 Y4.0811 I-1.7465 J0.7234
G3 X4.0159 Y4.4927 I-2.1577 J0.4116
G3 X3.977 Y4.9042 I-2.1966 J0
G3 X3.8665 Y5.2735 I-1.857 J-0.3542
G3 X3.6835 Y5.6127 I-1.7465 J-0.7234
G3 X3.42 Y5.9312 I-1.8167 J-1.2347
G1 Z-0.36 F30
G3 X3.1015 Y6.1947 I-1.5532 J-1.5532 F60
G3 X3.0029 Y6.2573 I-1.0626 J-1.5635
G1 Z-0.3 F30
G3 X2.7623 Y6.3777 I-0.964 J-1.6262 F60
G3 X2.5442 Y6.4528 I-0.7234 J-1.7465
G1 Z-0.36 F30
G3 X2.3931 Y6.4881 I-0.5054 J-1.8216 F60
G3 X1.9815 Y6.527 I-0.4116 J-2.1577
G3 X1.57 Y6.4881 I0 J-2.1966
G3 X1.2007 Y6.3777 I0.3542 J-1.857
G3 X0.8616 Y6.1947 I0.7234 J-1.7465
G3 X0.543 Y5.9312 I1.2347 J-1.8167
G3 X0.2795 Y5.6127 I1.5532 J-1.5532
G3 X0.0965 Y5.2735 I1.5635 J-1.0626
G3 X-0.0139 Y4.9042 I1.7465 J-0.7234
G3 X-0.0528 Y4.4927 I2.1577 J-0.4116
G3 X-0.0139 Y4.0811 I2.1966 J0
G3 X0.0965 Y3.7119 I1.857 J0.3542
G3 X0.2795 Y3.3727 I1.7465 J0.7234
G3 X0.543 Y3.0542 I1.8167 J1.2347
G3 X0.8616 Y2.7907 I1.5532 J1.5532
G3 X1.0046 Y2.7025 I1.0626 J1.5635
G1 Z-0.3 F30
G3 X1.2007 Y2.6077 I0.9196 J1.6517 F60
G3 X1.4683 Y2.5196 I0.7234 J1.7465
G1 Z-0.36 F30
G3 X1.57 Y2.4973 I0.4558 J1.8347 F60
G3 X1.9815 Y2.4584 I0.4116 J2.1577
G3 X2.3931 Y2.4973 I0 J2.1966
G3 X2.7623 Y2.6077 I-0.3542 J1.857
G3 X3.1015 Y2.7907 I-0.7234 J1.7465
G3 X3.42 Y3.0542 I-1.2347 J1.8167
G3 X3.6835 Y3.3727 I-1.5532 J1.5532
G3 X3.8665 Y3.7119 I-1.5635 J1.0626
G3 X3.977 Y4.0811 I-1.7465 J0.7234
G3 X4.0159 Y4.4927 I-2.1577 J0.4116
G3 X3.977 Y4.9042 I-2.1966 J0
G3 X3.8665 Y5.2735 I-1.857 J-0.3542
G3 X3.6835 Y5.6127 I-1.7465 J-0.7234
G3 X3.42 Y5.9312 I-1.8167 J-1.2347
G1 Z-0.48 F30
G3 X3.1015 Y6.1947 I-1.5532 J-1.5532 F60
G3 X3.0029 Y6.2573 I-1.0626 J-1.5635
G1 Z-0.3 F30
G3 X2.7623 Y6.3777 I-0.964 J-1.6262 F60
G3 X2.5442 Y6.4528 I-0.7234 J-1.7465
G1 Z-0.48 F30
G3 X2.3931 Y6.4881 I-0.5054 J-1.8216 F60
G3 X1.9815 Y6.527 I-0.4116 J-2.1577
G3 X1.57 Y6.4881 I0 J-2.1966
G3 X1.2007 Y6.3777 I0.3542 J-1.857
G3 X0.8616 Y6.1947 I0.7234 J-1.7465
G3 X0.543 Y5.9312 I1.2347 J-1.8167
G3 X0.2795 Y5.6127 I1.5532 J-1.5532
G3 X0.0965 Y5.2735 I1.5635 J-1.0626
G3 X-0.0139 Y4.9042 I1.7465 J-0.7234
G3 X-0.0528 Y4.4927 I2.1577 J-0.4116
G3 X-0.0139 Y4.0811 I2.1966 J0
G3 X0.0965 Y3.7119 I1.857 J0.3542
G3 X0.2795 Y3.3727 I1.7465 J0.7234
G3 X0.543 Y3.0542 I1.8167 J1.2347
G3 X0.8616 Y2.7907 I1.5532 J1.5532
G3 X1.0046 Y2.7025 I1.0626 J1.5635
G1 Z-0.3 F30
G3 X1.2007 Y2.6077 I0.9196 J1.6517 F60
G3 X1.4683 Y2.5196 I0.7234 J1.7465
G1 Z-0.48 F30
G3 X1.57 Y2.4973 I0.4558 J1.8347 F60
G3 X1.9815 Y2.4584 I0.4116 J2.1577
G3 X2.3931 Y2.4973 I0 J2.1966
G3 X2.7623 Y2.6077 I-0.3542 J1.857
G3 X3.1015 Y2.7907 I-0.7234 J1.7465
G3 X3.42 Y3.0542 I-1.2347 J1.8167
G3 X3.6835 Y3.3727 I-1.5532 J1.5532
G3 X3.8665 Y3.7119 I-1.5635 J1.0626
G3 X3.977 Y4.0811 I-1.7465 J0.7234
G3 X4.0159 Y4.4927 I-2.1577 J0.4116
G3 X3.977 Y4.9042 I-2.1966 J0
G3 X3.8665 Y5.2735 I-1.857 J-0.3542
G3 X3.6835 Y5.6127 I-1.7465 J-0.7234
G3 X3.42 Y5.9312 I-1.8167 J-1.2347
G1 Z-0.55 F30
G3 X3.1015 Y6.1947 I-1.5532 J-1.5532 F60
G3 X3.0029 Y6.2573 I-1.0626 J-1.5635
G1 Z-0.3 F30
G3 X2.7623 Y6.3777 I-0.964 J-1.6262 F60
G3 X2.5442 Y6.4528 I-0.7234 J-1.7465
G1 Z-0.55 F30
G3 X2.3931 Y6.4881 I-0.5054 J-1.8216 F60
G3 X1.9815 Y6.527 I-0.4116 J-2.1577
G3 X1.57 Y6.4881 I0 J-2.1966
G3 X1.2007 Y6.3777 I0.3542 J-1.857
G3 X0.8616 Y6.1947 I0.7234 J-1.7465
G3 X0.543 Y5.9312 I1.2347 J-1.8167
G3 X0.2795 Y5.6127 I1.5532 J-1.5532
G3 X0.0965 Y5.2735 I1.5635 J-1.0626
G3 X-0.0139 Y4.9042 I1.7465 J-0.7234
G3 X-0.0528 Y4.4927 I2.1577 J-0.4116
G3 X-0.0139 Y4.0811 I2.1966 J0
G3 X0.0965 Y3.7119 I1.857 J0.3542
G3 X0.2795 Y3.3727 I1.7465 J0.7234
G3 X0.543 Y3.0542 I1.8167 J1.2347
G3 X0.8616 Y2.7907 I1.5532 J1.5532
G3 X1.0046 Y2.7025 I1.0626 J1.5635
G1 Z-0.3 F30
G3 X1.2007 Y2.6077 I0.9196 J1.6517 F60
G3 X1.4683 Y2.5196 I0.7234 J1.7465
G1 Z-0.55 F30
G3 X1.57 Y2.4973 I0.4558 J1.8347 F60
G3 X1.9815 Y2.4584 I0.4116 J2.1577
G3 X2.3931 Y2.4973 I0 J2.1966
G3 X2.7623 Y2.6077 I-0.3542 J1.857
G3 X3.1015 Y2.7907 I-0.7234 J1.7465
G3 X3.42 Y3.0542 I-1.2347 J1.8167
G3 X3.6835 Y3.3727 I-1.5532 J1.5532
G3 X3.8665 Y3.7119 I-1.5635 J1.0626
G3 X3.977 Y4.0811 I-1.7465 J0.7234
G3 X4.0159 Y4.4927 I-2.1577 J0.4116
G3 X3.977 Y4.9042 I-2.1966 J0
G3 X3.8665 Y5.2735 I-1.857 J-0.3542
G3 X3.6835 Y5.6127 I-1.7465 J-0.7234
G3 X3.42 Y5.9312 I-1.8167 J-1.2347
G0 Z0.15
G0 X8.3402 Y5.4071
G1 Z-0.12 F30
G3 X8.1691 Y5.6852 I-1.8982 J-0.9763 F60
G3 X7.9575 Y5.934 I-1.7271 J-1.2544
G3 X7.7204 Y6.1374 I-1.3784 J-1.3672
G3 X7.4538 Y6.3001 I-1.1413 J-1.5706
G3 X7.1518 Y6.4245 I-0.9616 J-1.9057
G3 X6.8345 Y6.5013 I-0.6597 J-2.03
G3 X6.8174 Y6.504 I-0.3114 J-1.9163
G3 X6.5231 Y6.5265 I-0.2943 J-1.919
G3 X6.3189 Y6.5157 I0 J-1.9414
G3 X6.2117 Y6.5013 I0.2042 J-1.9307
G3 X5.8944 Y6.4245 I0.3423 J-2.1069
G3 X5.5924 Y6.3001 I0.6597 J-2.03
G3 X5.3258 Y6.1374 I0.8746 J-1.7333
G3 X5.0887 Y5.934 I1.1413 J-1.5706
G3 X4.8771 Y5.6852 I1.5155 J-1.5031
G3 X4.706 Y5.4071 I1.7271 J-1.2544
G3 X4.5859 Y5.1187 I1.7265 J-0.888
G3 X4.5137 Y4.8148 I1.8465 J-0.5996
G3 X4.4888 Y4.4897 I2.1096 J-0.3251
G1 X4.4888 Y4.4895
G1 X4.4888 Y4.4891
G1 X4.4888 Y4.4888
G3 X4.5137 Y4.1637 I2.1345 J0
G3 X4.5859 Y3.8598 I1.9188 J0.2957
G3 X4.706 Y3.5714 I1.8465 J0.5996
G3 X4.8771 Y3.2933 I1.8982 J0.9763
G3 X5.0887 Y3.0445 I1.7271 J1.2544
G3 X5.3258 Y2.8412 I1.3784 J1.3672
G3 X5.5924 Y2.6784 I1.1413 J1.5706
G3 X5.8944 Y2.5541 I0.9616 J1.9057
G3 X6.2117 Y2.4772 I0.6597 J2.03
G3 X6.3176 Y2.463 I0.3114 J1.9163
G3 X6.5231 Y2.4521 I0.2055 J1.9305
G3 X6.816 Y2.4743 I0 J1.9414
G3 X6.8345 Y2.4772 I-0.293 J1.9192
G3 X7.1518 Y2.5541 I-0.3423 J2.1069
G3 X7.4538 Y2.6784 I-0.6597 J2.03
G3 X7.7204 Y2.8412 I-0.8746 J1.7333
G3 X7.9575 Y3.0445 I-1.1413 J1.5706
G3 X8.1691 Y3.2933 I-1.5155 J1.5031
G3 X8.3402 Y3.5714 I-1.7271 J1.2544
G3 X8.4603 Y3.8598 I-1.7265 J0.888
G3 X8.5325 Y4.1637 I-1.8465 J0.5996
G3 X8.5574 Y4.4888 I-2.1096 J0.3251
G1 X8.5574 Y4.489
G1 X8.5574 Y4.4895
G1 X8.5574 Y4.4897
G3 X8.5325 Y4.8148 I-2.1345 J0
G3 X8.4603 Y5.1187 I-1.9188 J-0.2957
G3 X8.3402 Y5.4071 I-1.8465 J-0.5996
G1 Z-0.24 F30
G3 X8.1691 Y5.6852 I-1.8982 J-0.9763 F60
G3 X7.9575 Y5.934 I-1.7271 J-1.2544
G3 X7.7204 Y6.1374 I-1.3784 J-1.3672
G3 X7.4538 Y6.3001 I-1.1413 J-1.5706
G3 X7.1518 Y6.4245 I-0.9616 J-1.9057
G3 X6.8345 Y6.5013 I-0.6597 J-2.03
G3 X6.8174 Y6.504 I-0.3114 J-1.9163
G3 X6.5231 Y6.5265 I-0.2943 J-1.919
G3 X6.3189 Y6.5157 I0 J-1.9414
G3 X6.2117 Y6.5013 I0.2042 J-1.9307
G3 X5.8944 Y6.4245 I0.3423 J-2.1069
G3 X5.5924 Y6.3001 I0.6597 J-2.03
G3 X5.3258 Y6.1374 I0.8746 J-1.7333
G3 X5.0887 Y5.934 I1.1413 J-1.5706
G3 X4.8771 Y5.6852 I1.5155 J-1.5031
G3 X4.706 Y5.4071 I1.7271 J-1.2544
G3 X4.5859 Y5.1187 I1.7265 J-0.888
G3 X4.5137 Y4.8148 I1.8465 J-0.5996
G3 X4.4888 Y4.4897 I2.1096 J-0.3251
G1 X4.4888 Y4.4895
G1 X4.4888 Y4.4891
G1 X4.4888 Y4.4888
G3 X4.5137 Y4.1637 I2.1345 J0
G3 X4.5859 Y3.8598 I1.9188 J0.2957
G3 X4.706 Y3.5714 I1.8465 J0.5996
G3 X4.8771 Y3.2933 I1.8982 J0.9763
G3 X5.0887 Y3.0445 I1.7271 J1.2544
G3 X5.3258 Y2.8412 I1.3784 J1.3672
G3 X5.5924 Y2.6784 I1.1413 J1.5706
G3 X5.8944 Y2.5541 I0.9616 J1.9057
G3 X6.2117 Y2.4772 I0.6597 J2.03
G3 X6.3176 Y2.463 I0.3114 J1.9163
G3 X6.5231 Y2.4521 I0.2055 J1.9305
G3 X6.816 Y2.4743 I0 J1.9414
G3 X6.8345 Y2.4772 I-0.293 J1.9192
G3 X7.1518 Y2.5541 I-0.3423 J2.1069
G3 X7.4538 Y2.6784 I-0.6597 J2.03
G3 X7.7204 Y2.8412 I-0.8746 J1.7333
G3 X7.9575 Y3.0445 I-1.1413 J1.5706
G3 X8.1691 Y3.2933 I-1.5155 J1.5031
G3 X8.3402 Y3.5714 I-1.7271 J1.2544
G3 X8.4603 Y3.8598 I-1.7265 J0.888
G3 X8.5325 Y4.1637 I-1.8465 J0.5996
G3 X8.5574 Y4.4888 I-2.1096 J0.3251
G1 X8.5574 Y4.489
G1 X8.5574 Y4.4895
G1 X8.5574 Y4.4897
G3 X8.5325 Y4.8148 I-2.1345 J0
G3 X8.4603 Y5.1187 I-1.9188 J-0.2957
G3 X8.3402 Y5.4071 I-1.8465 J-0.5996
G1 Z-0.36 F30
G3 X8.1691 Y5.6852 I-1.8982 J-0.9763 F60
G3 X7.9575 Y5.934 I-1.7271 J-1.2544
G3 X7.7204 Y6.1374 I-1.3784 J-1.3672
G3 X7.4538 Y6.3001 I-1.1413 J-1.5706
